Eg3-git/Classifiers/Data Collection/u1/u1xyz4_ur3e_joint_states.csv
time,elbow_joint,shoulder_lift_joint,shoulder_pan_joint,wrist_1_joint,wrist_2_joint,wrist_3_joint
1708433800.6603477,-2.1534721851348877,-1.335850716834404,-2.521780077611105,6.135215031891622,1.008469820022583,-2.709289852772848
1708433800.662328,-2.1534810066223145,-1.335846261387207,-2.521763865147726,6.1352436421211145,1.0084491968154907,-2.709257189427511
1708433800.6643379,-2.153472900390625,-1.3358434003642579,-2.5218218008624476,6.135210621147909,1.0084328651428223,-2.709301773701803
1708433800.6663282,-2.1534969806671143,-1.3358593446067353,-2.5217846075641077,6.135258543282308,1.0084611177444458,-2.7093358675586146
1708433800.6683557,-2.153489828109741,-1.3358347874930878,-2.5218427816974085,6.135192978173055,1.0084285736083984,-2.709323231373922
1708433800.6703322,-2.1534810066223145,-1.3358593446067353,-2.5217846075641077,6.135151612549581,1.0084284543991089,-2.709301773701803
1708433800.6723442,-2.153477191925049,-1.3358550828746338,-2.521812979375021,6.135267483979025,1.0084534883499146,-2.709285322819845
1708433800.6744025,-2.153451919555664,-1.335826800470688,-2.5217726866351526,6.1352423308189294,1.0084209442138672,-2.709269110356466
1708433800.6763482,-2.1534852981567383,-1.3358625632575531,-2.5218010584460657,6.135221588402548,1.0084697008132935,-2.7093358675586146
1708433800.678318,-2.1534969806671143,-1.3358259958079834,-2.521808449422018,6.135251152306356,1.0084490776062012,-2.7093401590930384
1708433800.6803427,-2.1534969806671143,-1.335834802394249,-2.5218263308154505,6.135258543282308,1.0084360837936401,-2.7093141714679163
1708433800.6823359,-2.153522491455078,-1.3358391386321564,-2.521792236958639,6.135245430260458,1.0084534883499146,-2.7093685309039515
1708433800.6843178,-2.1534810066223145,-1.3358225238374253,-2.5217891375171106,6.135225999146261,1.0084490776062012,-2.7093051115619105
1708433800.6863258,-2.1534852981567383,-1.3358347725919266,-2.521824900303976,6.13527940490798,1.0084863901138306,-2.709292475377218
1708433800.6883655,-2.153522491455078,-1.3358836036971589,-2.5217681566821497,6.135197508126058,1.008424162864685,-2.7093685309039515
1708433800.6903217,-2.1534597873687744,-1.3358550679734726,-2.5217846075641077,6.135221588402548,1.0084609985351562,-2.7093310991870325
1708433800.6923287,-2.1534924507141113,-1.3358713549426575,-2.5217681566821497,6.13526617267684,1.0084490776062012,-2.7093668619738978
1708433800.694318,-2.1535091400146484,-1.3358507317355652,-2.521775786076681,6.135261761933126,1.0084490776062012,-2.7093849817859095
1708433800.696337,-2.1534764766693115,-1.3358593446067353,-2.521763865147726,6.135258543282308,1.008386492729187,-2.7093051115619105
1708433800.6983378,-2.153510093688965,-1.3359117072871705,-2.5218098799334925,6.135237920075216,1.0084166526794434,-2.7093668619738978
1708433800.7003658,-2.1534721851348877,-1.335875616674759,-2.5218010584460657,6.135245430260458,1.008437156677246,-2.709317747746603
1708433800.7023523,-2.1534810066223145,-1.3357974749854584,-2.5217891375171106,6.135249841004171,1.0084404945373535,-2.7092972437488
1708433800.7043328,-2.1534643173217773,-1.335863785152771,-2.521780077611105,6.1352858422096155,1.008440375328064,-2.7093592325793665
1708433800.7063315,-2.1534721851348877,-1.3358593893102189,-2.5218098799334925,6.13527392128066,1.0084328651428223,-2.709317747746603
1708433800.7083485,-2.153505563735962,-1.3358478558114548,-2.5217517058001917,6.135310995369711,1.00841224193573,-2.7093802134143274
1708433800.710333,-2.153501272201538,-1.3358303320458909,-2.5217681566821497,6.135249841004171,1.0084359645843506,-2.709345881138937
1708433800.7123632,-2.1534924507141113,-1.3358391386321564,-2.521763865147726,6.135270464211263,1.0084909200668335,-2.7093668619738978
1708433800.714331,-2.1535181999206543,-1.335863785152771,-2.5217846075641077,6.135306465416708,1.0084742307662964,-2.7093668619738978
1708433800.7163427,-2.1534810066223145,-1.3359010082534333,-2.5217772165881556,6.1352542517478845,1.0084819793701172,-2.7093668619738978
1708433800.7183518,-2.1534810066223145,-1.335867003803589,-2.521763865147726,6.135249841004171,1.008469820022583,-2.709362332020895
1708433800.7203612,-2.153500556945801,-1.3358550828746338,-2.5217891375171106,6.135278451233663,1.0084079504013062,-2.7093921343432825
1708433800.722345,-2.1534643173217773,-1.3358998757651825,-2.521759335194723,6.1352871535118005,1.0084166526794434,-2.7093711535083216
1708433800.7243557,-2.153472900390625,-1.3358879548362275,-2.521808449422018,6.135282742768087,1.0084285736083984,-2.709341589604513
1708433800.7263386,-2.153451919555664,-1.3358312410167237,-2.5218175093280237,6.135233509331503,1.008424162864685,-2.7093005816089075
1708433800.7283568,-2.1535136699676514,-1.3358713549426575,-2.521775786076681,6.135233509331503,1.0084447860717773,-2.7093668619738978
1708433800.730555,-2.1534852981567383,-1.3358347874930878,-2.5218263308154505,6.135241019516744,1.0084490776062012,-2.7093640009509485
1708433800.7323844,-2.1534810066223145,-1.3358507317355652,-2.5218263308154505,6.135270464211263,1.0084776878356934,-2.709334198628561
1708433800.7343335,-2.1534430980682373,-1.335892216568329,-2.5218010584460657,6.135232198029318,1.0084939002990723,-2.709357802067892
1708433800.7363508,-2.153517961502075,-1.3358954352191468,-2.5218010584460657,6.135224687844076,1.0084776878356934,-2.70937425294985
1708433800.7383614,-2.153501272201538,-1.3358391386321564,-2.5217934290515345,6.13526617267684,1.0084776878356934,-2.709345881138937
1708433800.7403355,-2.1534764766693115,-1.3358922761729737,-2.5218382517444056,6.13526617267684,1.0084567070007324,-2.7093711535083216
1708433800.7423449,-2.153501272201538,-1.3358312410167237,-2.521742645894186,6.13526617267684,1.0084404945373535,-2.709357802067892
1708433800.7443652,-2.1534852981567383,-1.335830346947052,-2.521799389516012,6.135299074440756,1.0084284543991089,-2.7093504110919397
1708433800.7463427,-2.1534721851348877,-1.3358226132443924,-2.5218010584460657,6.135249841004171,1.0084316730499268,-2.7093384901629847
1708433800.7483633,-2.1534597873687744,-1.335863785152771,-2.5217726866351526,6.13521288612441,1.0084285736083984,-2.709329668675558
1708433800.7503219,-2.1534969806671143,-1.335826800470688,-2.5218172709094446,6.135249841004171,1.00841224193573,-2.7093265692340296
1708433800.7523253,-2.1534509658813477,-1.3358312410167237,-2.5218172709094446,6.135269510536947,1.0084776878356934,-2.7093265692340296
1708433800.7543314,-2.1534810066223145,-1.3358550828746338,-2.5218175093280237,6.135257231980123,1.0084863901138306,-2.709345881138937
1708433800.7563255,-2.153468608856201,-1.3358593446067353,-2.521780077611105,6.135233509331503,1.0084491968154907,-2.709317747746603
1708433800.758331,-2.1534764766693115,-1.3359129291823884,-2.521812979375021,6.1352542517478845,1.0084688663482666,-2.7093549410449427
1708433800.7603443,-2.1535048484802246,-1.3358593446067353,-2.52179199854006,6.13526617267684,1.0084776878356934,-2.709357802067892
1708433800.7623343,-2.153468608856201,-1.3358478409102936,-2.521775786076681,6.135282742768087,1.0084490776062012,-2.70937425294985
1708433800.764355,-2.1534852981567383,-1.3359042269042511,-2.521768395100729,6.13521288612441,1.00847327709198,-2.709369722996847
1708433800.7663412,-2.153489589691162,-1.3358419400504609,-2.5217681566821497,6.135270464211263,1.008424162864685,-2.70933705965151
1708433800.7683377,-2.1535091400146484,-1.3358478409102936,-2.52175480524172,6.135291564255514,1.0084447860717773,-2.709345881138937
1708433800.7703385,-2.153522491455078,-1.335892216568329,-2.521780077611105,6.135310995369711,1.0084209442138672,-2.709362332020895
1708433800.7723281,-2.1534721851348877,-1.3358966571143647,-2.521824900303976,6.135282742768087,1.0084776878356934,-2.7093711535083216
1708433800.7743368,-2.153446674346924,-1.3358391386321564,-2.521721665059225,6.135215866356649,1.0084447860717773,-2.7093802134143274
1708433800.77638,-2.1534810066223145,-1.3358550828746338,-2.521812979375021,6.135249841004171,1.0084776878356934,-2.7093995253192347
1708433800.7783356,-2.1534228324890137,-1.3358419400504609,-2.521780077611105,6.135290252953329,1.0084645748138428,-2.709378782902853
1708433800.7803485,-2.1534924507141113,-1.3358391386321564,-2.5218172709094446,6.135282742768087,1.0084609985351562,-2.7093949953662317
1708433800.7823365,-2.153451919555664,-1.3358550828746338,-2.521796528493063,6.135261761933126,1.0084447860717773,-2.7093475500689905
1708433800.7843227,-2.1535091400146484,-1.3358713549426575,-2.521759335194723,6.135229098587789,1.0084447860717773,-2.7093549410449427
1708433800.7863214,-2.1534924507141113,-1.335830346947052,-2.5218010584460657,6.135237920075216,1.0084567070007324,-2.709308926259176
1708433800.7883391,-2.1534852981567383,-1.3358713549426575,-2.521775786076681,6.135217177658834,1.0084534883499146,-2.7093668619738978
1708433800.7903273,-2.1534597873687744,-1.3358625632575531,-2.52179199854006,6.1352048991020105,1.0084328651428223,-2.7093132177936
1708433800.7923331,-2.153440475463867,-1.3358225387385865,-2.521780077611105,6.13521288612441,1.0084776878356934,-2.709390703831808
1708433800.79433,-2.1534969806671143,-1.3358593446067353,-2.5217681566821497,6.1352542517478845,1.0084328651428223,-2.7093220392810267
1708433800.7963367,-2.1534764766693115,-1.3358225238374253,-2.5217888990985315,6.135229217797079,1.0084284543991089,-2.7092917601214808
1708433800.7983427,-2.153501272201538,-1.3358355921557923,-2.5217726866351526,6.135246860771932,1.0084490776062012,-2.709282938634054
1708433800.8003416,-2.1534881591796875,-1.335813747053482,-2.521812979375021,6.135251152306356,1.0084034204483032,-2.7093549410449427
1708433800.802338,-2.1534969806671143,-1.3358259958079834,-2.521803919469015,6.13526617267684,1.0084209442138672,-2.7093141714679163
1708433800.8043642,-2.153501272201538,-1.3358998012593766,-2.521824900303976,6.135258543282308,1.0084447860717773,-2.709362332020895
1708433800.8063357,-2.1535048484802246,-1.3358507317355652,-2.521824900303976,6.1351767657096765,1.0084285736083984,-2.7093849817859095
1708433800.808341,-2.153505563735962,-1.335863785152771,-2.5217891375171106,6.135263073235311,1.0084491968154907,-2.7093132177936
1708433800.8103373,-2.1534924507141113,-1.335789994602539,-2.521759335194723,6.135188805847921,1.0084404945373535,-2.7093504110919397
1708433800.812339,-2.1534810066223145,-1.3358625632575531,-2.5218175093280237,6.135209429055013,1.0084404945373535,-2.7093918959247034
1708433800.8143716,-2.1534810066223145,-1.3358462911895295,-2.52179199854006,6.135217296868124,1.0084447860717773,-2.7093220392810267
1708433800.8163466,-2.1534838676452637,-1.3358391535333176,-2.521763865147726,6.135258662491598,1.0084447860717773,-2.7093384901629847
1708433800.81835,-2.153501272201538,-1.3358149689487,-2.5218010584460657,6.135234820633688,1.0084447860717773,-2.7093504110919397
1708433800.8203335,-2.1534430980682373,-1.3358391386321564,-2.5218098799334925,6.135251152306356,1.0084197521209717,-2.7093430201159876
1708433800.8223252,-2.153472900390625,-1.3358593446067353,-2.5217726866351526,6.135213839798727,1.008424162864685,-2.709378782902853
1708433800.8243315,-2.1534509658813477,-1.3358391386321564,-2.521750275288717,6.1352050183113,1.0084328651428223,-2.709341589604513
1708433800.826331,-2.153451919555664,-1.3358312410167237,-2.5218218008624476,6.135193097382345,1.0084285736083984,-2.7093668619738978
1708433800.8283572,-2.1534597873687744,-1.3358998757651825,-2.5218127409564417,6.135259973793783,1.0084254741668701,-2.7093051115619105
1708433800.8303297,-2.153447389602661,-1.3358593446067353,-2.521812979375021,6.135230529099264,1.0084820985794067,-2.7093949953662317
1708433800.8323312,-2.153468608856201,-1.3358800572207947,-2.52179199854006,6.135140764504232,1.0083866119384766,-2.709308687840597
1708433800.834326,-2.153501272201538,-1.3358593446067353,-2.5218055883990687,6.13519440868453,1.0084209442138672,-2.709329668675558
1708433800.8363273,-2.153494119644165,-1.3357856434634705,-2.5218382517444056,6.135165917664327,1.0084490776062012,-2.7093475500689905
1708433800.838325,-2.1534969806671143,-1.335867003803589,-2.521796528493063,6.135206329613485,1.0084166526794434,-2.7093802134143274
1708433800.84034,-2.153451919555664,-1.3358391386321564,-2.5217393080340784,6.1351613877113245,1.0084079504013062,-2.7093802134143274
1708433800.842352,-2.153451919555664,-1.3358550828746338,-2.521812979375021,6.135174739151754,1.0084623098373413,-2.7093504110919397
1708433800.844363,-2.153510093688965,-1.3358637255481263,-2.5217846075641077,6.1351332543189905,1.0084909200668335,-2.7093220392810267
1708433800.846317,-2.153501272201538,-1.335855097775795,-2.5217681566821497,6.135159718781271,1.008437156677246,-2.7093756834613245
1708433800.8483527,-2.1534969806671143,-1.335810513501503,-2.5218218008624476,6.135130035668173,1.008457899093628,-2.7093504110919397
1708433800.8503444,-2.153510093688965,-1.3358182323030015,-2.521787707005636,6.135112631111898,1.0084534883499146,-2.7093592325793665
1708433800.8523679,-2.153440475463867,-1.3358767938664933,-2.5218172709094446,6.135137665062704,1.0084284543991089,-2.7093220392810267
1708433800.8543537,-2.1534597873687744,-1.335859314804413,-2.5218263308154505,6.135109174042501,1.0084742307662964,-2.7093430201159876
1708433800.8563488,-2.153447389602661,-1.33583556235347,-2.5217891375171106,6.135085332184591,1.0084284543991089,-2.7093132177936
1708433800.8583658,-2.1534643173217773,-1.3358105284026642,-2.521775786076681,6.135147917061605,1.0084418058395386,-2.7093637625323694
1708433800.8603673,-2.1534597873687744,-1.3358094108155747,-2.521763865147726,6.135143387108602,1.0084654092788696,-2.7093265692340296
1708433800.8623652,-2.1535348892211914,-1.3358593446067353,-2.5217846075641077,6.1351016638572595,1.0084209442138672,-2.7093384901629847
1708433800.8643374,-2.153501272201538,-1.3358312410167237,-2.5218218008624476,6.135085451393881,1.008437156677246,-2.7093520800219935
1708433800.8663323,-2.153468608856201,-1.3358391237309952,-2.5218055883990687,6.135098683625021,1.0084166526794434,-2.709301773701803
1708433800.8683367,-2.1534361839294434,-1.3358018708280106,-2.5217846075641077,6.135041820793905,1.0084534883499146,-2.7093685309039515
1708433800.8703356,-2.153505802154541,-1.3358073991588135,-2.5218010584460657,6.135044920235433,1.008392333984375,-2.7093096415149134
1708433800.872329,-2.153489589691162,-1.3358105284026642,-2.521733824406759,6.134980785637655,1.008441686630249,-2.7093096415149134
1708433800.874366,-2.1534316539764404,-1.335807428961136,-2.521796528493063,6.135062563210287,1.0084328651428223,-2.7093430201159876
1708433800.8763266,-2.1534969806671143,-1.3358565729907532,-2.5217934290515345,6.135062563210287,1.008441686630249,-2.7093430201159876
1708433800.8783305,-2.1534852981567383,-1.335819349890091,-2.5218010584460657,6.134988295822897,1.0084534883499146,-2.7092717329608362
1708433800.8803287,-2.153447389602661,-1.3358181577971955,-2.521808449422018,6.135030972748556,1.0084491968154907,-2.7093358675586146
1708433800.8823223,-2.153477191925049,-1.3358303171447297,-2.5217846075641077,6.135001528054037,1.0084209442138672,-2.7093310991870325
1708433800.8843312,-2.153510093688965,-1.3358593595078965,-2.5218172709094446,6.135063874512472,1.008405327796936,-2.7093358675586146
1708433800.8863432,-2.1534476280212402,-1.3358550828746338,-2.521759335194723,6.135005819588461,1.00841224193573,-2.7093265692340296
1708433800.8883388,-2.153477191925049,-1.335868166094162,-2.5218053499804896,6.135034072190084,1.0084460973739624,-2.7093339602099817
1708433800.8903344,-2.153472900390625,-1.3358355921557923,-2.5218010584460657,6.135010230332174,1.008408546447754,-2.7093640009509485
1708433800.8923392,-2.153477191925049,-1.3358312410167237,-2.521763865147726,6.1350265620048425,1.0084460973739624,-2.7093384901629847
1708433800.8943503,-2.1534852981567383,-1.3358093363097687,-2.5217772165881556,6.134965407639303,1.0083760023117065,-2.7093401590930384
1708433800.896363,-2.153449058532715,-1.3358800870231171,-2.5217934290515345,6.134944784432211,1.0083876848220825,-2.709306303654806
1708433800.8983397,-2.153456211090088,-1.3357942265323182,-2.5218382517444056,6.134981620102682,1.0083760023117065,-2.709306303654806
1708433800.9003458,-2.1534969806671143,-1.3358149540475388,-2.5218010584460657,6.134986150055685,1.0083922147750854,-2.7093310991870325
1708433800.9023352,-2.153451919555664,-1.3358267855695267,-2.5218010584460657,6.135011541634359,1.008421540260315,-2.709292475377218
1708433800.9043572,-2.1534647941589355,-1.3358443242362519,-2.5218053499804896,6.134962308197775,1.0083847045898438,-2.709289852772848
1708433800.9063437,-2.1534643173217773,-1.3358391237309952,-2.5218175093280237,6.134957897454061,1.0083966255187988,-2.7093358675586146
1708433800.9083517,-2.153477191925049,-1.3357855838588257,-2.5218175093280237,6.134958016663351,1.0084298849105835,-2.709323231373922
1708433800.910333,-2.153477191925049,-1.3358391535333176,-2.5217726866351526,6.134971129685201,1.0083802938461304,-2.70927340189089
1708433800.912352,-2.153456211090088,-1.3358312410167237,-2.521780077611105,6.134959208756246,1.0083386898040771,-2.709301773701803
1708433800.9143593,-2.1534159183502197,-1.3358312410167237,-2.5217681566821497,6.134957897454061,1.0084097385406494,-2.709269110356466
1708433800.9163365,-2.1534035205841064,-1.3358267855695267,-2.5217681566821497,6.13492630699233,1.0084009170532227,-2.709276262913839
1708433800.9183352,-2.1534035205841064,-1.3357855838588257,-2.5218010584460657,6.134920584946432,1.0083847045898438,-2.709301773701803
1708433800.9203546,-2.1534290313720703,-1.3358030331185837,-2.5217514673816126,6.134914386063375,1.0083562135696411,-2.70927340189089
1708433800.9223466,-2.153440475463867,-1.3357942265323182,-2.5217846075641077,6.1349549172218225,1.0083891153335571,-2.709289852772848
1708433800.9243436,-2.153416633605957,-1.335822508936264,-2.5218053499804896,6.1348726628120325,1.0083189010620117,-2.709301773701803
1708433800.9263322,-2.153451919555664,-1.335810513501503,-2.521759335194723,6.134901153832235,1.0084010362625122,-2.709301773701803
1708433800.928418,-2.1534647941589355,-1.3358478558114548,-2.521780077611105,6.134946930199423,1.0084009170532227,-2.709266010914938
1708433800.930357,-2.1534533500671387,-1.3359130185893555,-2.521775786076681,6.134918916016378,1.0083966255187988,-2.709280792866842
1708433800.932346,-2.15339994430542,-1.3358434003642579,-2.5217471758471888,6.134935128479757,1.0083431005477905,-2.709240738545553
1708433800.9343657,-2.153412342071533,-1.3358478558114548,-2.521759335194723,6.134897815972128,1.0083847045898438,-2.709277931843893
1708433800.9363735,-2.153433322906494,-1.3358312410167237,-2.5217891375171106,6.134955751686849,1.0083935260772705,-2.7092705408679407
1708433800.9383812,-2.1534035205841064,-1.3358267855695267,-2.521796528493063,6.134909975319662,1.0083760023117065,-2.709301773701803
1708433800.9403386,-2.153420925140381,-1.3358149540475388,-2.521775786076681,6.134882795601644,1.0083649158477783,-2.709294382725851
1708433800.942354,-2.153412342071533,-1.3358399730971833,-2.521775547658102,6.134878384857931,1.0083847045898438,-2.70927340189089
1708433800.9443736,-2.1534605026245117,-1.335810513501503,-2.5218098799334925,6.134869563370504,1.0083847045898438,-2.7092986742602747
1708433800.9463542,-2.1533865928649902,-1.3358565729907532,-2.5217846075641077,6.134845721512594,1.008377194404602,-2.7093032042132776
1708433800.9483635,-2.153447389602661,-1.335835577254631,-2.5218010584460657,6.134945142060079,1.0083891153335571,-2.709228817616598
1708433800.9503434,-2.153441905975342,-1.335794286136963,-2.521763865147726,6.134833800583639,1.0083889961242676,-2.709282461796896
1708433800.9523454,-2.153433322906494,-1.3358030331185837,-2.5217681566821497,6.134820687561788,1.0083847045898438,-2.709233347569601
1708433800.9543405,-2.1533796787261963,-1.3358030331185837,-2.5217846075641077,6.134826290398397,1.0083398818969727,-2.7092586199389856
1708433800.9563427,-2.153456211090088,-1.3358399730971833,-2.521759335194723,6.134829509049215,1.0083606243133545,-2.709259812031881
1708433800.9583492,-2.1534621715545654,-1.3358638149550934,-2.521812979375021,6.1348339197929285,1.0083889961242676,-2.7092748324023646
1708433800.9603388,-2.153420925140381,-1.335803048019745,-2.5218218008624476,6.134879576950826,1.0084097385406494,-2.70924956003298
1708433800.9623437,-2.153433322906494,-1.3358368885568161,-2.521803919469015,6.134827601700582,1.0083935260772705,-2.709233347569601
1708433800.9643438,-2.153433322906494,-1.3357867312482377,-2.521796528493063,6.134797799378195,1.0084128379821777,-2.709282461796896
1708433800.9663262,-2.153416633605957,-1.3357911121896286,-2.521787707005636,6.134810912400045,1.0083978176116943,-2.7091954390155237
1708433800.9683857,-2.153444766998291,-1.3358193051866074,-2.5217559973346155,6.134781586914816,1.0083727836608887,-2.7092421690570276
1708433800.9703634,-2.153441905975342,-1.3358355176499863,-2.5217559973346155,6.1348233101661584,1.0083966255187988,-2.709282461796896
1708433800.9723694,-2.153412342071533,-1.3357823950103302,-2.521742645894186,6.134827601700582,1.0083847045898438,-2.7092421690570276
1708433800.9743476,-2.153420925140381,-1.3357779395631333,-2.5218337217914026,6.1347858784492395,1.0083444118499756,-2.7092466990100306
1708433800.9763577,-2.1534535884857178,-1.3358073991588135,-2.5218172709094446,6.134765136032858,1.0083816051483154,-2.7092302481280726
1708433800.9783564,-2.153437614440918,-1.3358478558114548,-2.5218010584460657,6.134774076729574,1.0083727836608887,-2.7092703024493616
1708433800.9803345,-2.153441905975342,-1.3358399730971833,-2.5217471758471888,6.134839522629537,1.0083935260772705,-2.7092540899859827
1708433800.9823349,-2.1534290313720703,-1.3358478558114548,-2.5218053499804896,6.134766447335043,1.0083935260772705,-2.7092586199389856
1708433800.9843566,-2.1534128189086914,-1.3357899498990555,-2.521787707005636,6.134839522629537,1.0083978176116943,-2.7092257181750696
1708433800.9863272,-2.153442144393921,-1.3358062219670792,-2.521759335194723,6.134802210121908,1.0083190202713013,-2.7092540899859827
1708433800.9883456,-2.15338397026062,-1.3358073991588135,-2.5218053499804896,6.134762155800619,1.0083727836608887,-2.7092676798449915
1708433800.990334,-2.1534085273742676,-1.3357867461493989,-2.521780077611105,6.134782779007711,1.0083355903625488,-2.7092257181750696
1708433800.9923384,-2.1534621715545654,-1.3358193200877686,-2.5218055883990687,6.1347858784492395,1.0083816051483154,-2.7092133204089563
1708433800.9943562,-2.153392791748047,-1.3358073991588135,-2.5218053499804896,6.134807812958517,1.0083518028259277,-2.7092087904559534
1708433800.9963357,-2.15339994430542,-1.335807428961136,-2.5217891375171106,6.134802210121908,1.0083444118499756,-2.7092133204089563
1708433800.9983706,-2.153420925140381,-1.3357942712358017,-2.5218010584460657,6.134787189751425,1.0083978176116943,-2.7092178503619593
1708433801.0003774,-2.153437614440918,-1.3357582253268738,-2.5217846075641077,6.134778368263998,1.0083816051483154,-2.7092512289630335
1708433801.00238,-2.153441905975342,-1.3358391237309952,-2.5217772165881556,6.134762155800619,1.0083355903625488,-2.7092087904559534
1708433801.0043452,-2.15339994430542,-1.3358030331185837,-2.521812979375021,6.134827601700582,1.0083649158477783,-2.7092133204089563
1708433801.006385,-2.153392791748047,-1.3358312112144013,-2.5217471758471888,6.134851324349203,1.008344292640686,-2.7092087904559534
1708433801.0083394,-2.153441905975342,-1.3358487796834488,-2.521796528493063,6.134774076729574,1.0083606243133545,-2.709209982548849
1708433801.0103283,-2.153441905975342,-1.3358193200877686,-2.521775786076681,6.134749877243795,1.0083277225494385,-2.709222380314962
1708433801.012352,-2.1534578800201416,-1.3358073991588135,-2.52179199854006,6.134781467705526,1.0083606243133545,-2.709184471760885
1708433801.0143335,-2.1534621715545654,-1.3358117651990433,-2.5217681566821497,6.1348153231437585,1.0084010362625122,-2.709200922642843
1708433801.0163307,-2.1534578800201416,-1.3357911121896286,-2.5217681566821497,6.134797799378195,1.0083487033843994,-2.7092512289630335
1708433801.018354,-2.1534340381622314,-1.3358280521682282,-2.5217934290515345,6.1348034022148035,1.008347511291504,-2.7092133204089563
1708433801.0203235,-2.15338397026062,-1.3358355921557923,-2.521775786076681,6.134848344116964,1.0083531141281128,-2.7092178503619593
1708433801.0223517,-2.1534042358398438,-1.3358280074647446,-2.5218172709094446,6.1348187802131555,1.0083606243133545,-2.709181610737936
1708433801.024318,-2.153441905975342,-1.3357986968806763,-2.5217517058001917,6.1348153231437585,1.00838041305542,-2.7092438379870813
1708433801.0263314,-2.153392791748047,-1.3358073991588135,-2.521796528493063,6.134827601700582,1.008323311805725,-2.709168020878927
1708433801.028356,-2.1534042358398438,-1.3357899498990555,-2.521780077611105,6.134811031609335,1.0083727836608887,-2.709231440220968
1708433801.030386,-2.153392791748047,-1.3358074140599747,-2.5217891375171106,6.134762155800619,1.008377194404602,-2.709172789250509
1708433801.0324357,-2.1534128189086914,-1.3358162206462403,-2.5217726866351526,6.134806620865621,1.0083277225494385,-2.7092438379870813
1708433801.0343688,-2.1534042358398438,-1.3357999336770554,-2.5218053499804896,6.134832012444296,1.0083694458007812,-2.709193531666891
1708433801.036421,-2.153420925140381,-1.3357582998326798,-2.5218427816974085,6.134815442353048,1.0083694458007812,-2.709193531666891
1708433801.0383217,-2.1534085273742676,-1.335832492714264,-2.521845881138937,6.134847032814779,1.0083650350570679,-2.7092157045947474
1708433801.0403535,-2.1533801555633545,-1.335763843064644,-2.521803919469015,6.134860265045919,1.0084097385406494,-2.7092230955706995
1708433801.0423322,-2.15338397026062,-1.3357955080321808,-2.5218010584460657,6.134827601700582,1.0083321332931519,-2.709189001713888
1708433801.044337,-2.15339994430542,-1.3357745122960587,-2.5218218008624476,6.134748923569479,1.0083531141281128,-2.7092023531543177
1708433801.046326,-2.153420925140381,-1.3357999336770554,-2.521759335194723,6.1347577450569055,1.0083531141281128,-2.7092068831073206
1708433801.048323,-2.1534173488616943,-1.335750774746277,-2.5217772165881556,6.134753215103903,1.0083531141281128,-2.709160868321554
1708433801.0503376,-2.1533846855163574,-1.3358117651990433,-2.5217891375171106,6.134773957520284,1.008327841758728,-2.7092276255237024
1708433801.052334,-2.1534042358398438,-1.3357899498990555,-2.5217350164996546,6.13479911068038,1.0083444118499756,-2.7091861406909388
1708433801.0543237,-2.1534295082092285,-1.3358073991588135,-2.5217517058001917,6.134851324349203,1.0083694458007812,-2.7092230955706995
1708433801.0563302,-2.1533970832824707,-1.3357867908528824,-2.5217891375171106,6.13479911068038,1.0083619356155396,-2.709172789250509
1708433801.0583162,-2.153392791748047,-1.3358565729907532,-2.5217605272876185,6.134778368263998,1.0083694458007812,-2.7091861406909388
1708433801.060319,-2.153392791748047,-1.3358073991588135,-2.5217726866351526,6.134765255242147,1.0083365440368652,-2.7092230955706995
1708433801.0623305,-2.1534042358398438,-1.3358073991588135,-2.521775786076681,6.134790289192953,1.0083649158477783,-2.709160868321554
1708433801.064324,-2.153420925140381,-1.3358399730971833,-2.5218144098864954,6.134832012444296,1.008323311805725,-2.7092483679400843
1708433801.0663483,-2.153392791748047,-1.335798667078354,-2.52175480524172,6.134864556580343,1.0083365440368652,-2.709172789250509
1708433801.068361,-2.153441905975342,-1.3358073991588135,-2.521763865147726,6.134864675789633,1.0083487033843994,-2.709165159855978
1708433801.0703194,-2.1534464359283447,-1.3357824397138138,-2.5217846075641077,6.134811031609335,1.0083203315734863,-2.709165159855978
1708433801.0723302,-2.153388500213623,-1.3358325076154252,-2.5217681566821497,6.134790289192953,1.0083277225494385,-2.7092188040362757
1708433801.0743256,-2.153433322906494,-1.3357789081386109,-2.5217726866351526,6.134806620865621,1.0083532333374023,-2.709226910267965
1708433801.0763571,-2.1533634662628174,-1.3358030331185837,-2.521771256123678,6.134797680168905,1.0083365440368652,-2.709184471760885
1708433801.0783434,-2.1534085273742676,-1.3357942265323182,-2.521775786076681,6.134848344116964,1.0083444118499756,-2.709209982548849
1708433801.0803347,-2.1534042358398438,-1.3358236861279984,-2.5217471758471888,6.134811031609335,1.0083562135696411,-2.7092142740832728
1708433801.0823548,-2.1534736156463623,-1.3358565729907532,-2.521775786076681,6.134827601700582,1.0083202123641968,-2.709156338368551
1708433801.0843236,-2.1534085273742676,-1.3357986372760315,-2.521796528493063,6.1348233101661584,1.0083365440368652,-2.7091696898089808
1708433801.08632,-2.153437614440918,-1.3358522069505234,-2.521738115941183,6.134854543000021,1.0083365440368652,-2.709165159855978
1708433801.088365,-2.153441905975342,-1.3358073991588135,-2.52175480524172,6.134830701142111,1.008345365524292,-2.7092188040362757
1708433801.0903301,-2.153420925140381,-1.3357911568931122,-2.5217846075641077,6.134811031609335,1.008340835571289,-2.709205452595846
1708433801.09237,-2.1534128189086914,-1.3357954782298584,-2.5218263308154505,6.134847032814779,1.0083036422729492,-2.7091742197619837
1708433801.0943265,-2.1533970832824707,-1.3358768981746216,-2.5217517058001917,6.134847032814779,1.0083377361297607,-2.7092142740832728
1708433801.0963252,-2.153391122817993,-1.3358117651990433,-2.5217846075641077,6.134863245278158,1.0082712173461914,-2.709172789250509
1708433801.0983386,-2.1534042358398438,-1.3357745122960587,-2.521787707005636,6.134788977890768,1.0082874298095703,-2.7092142740832728
1708433801.1003673,-2.153420925140381,-1.3358117651990433,-2.521780077611105,6.134796964913168,1.0083377361297607,-2.7091861406909388
1708433801.102363,-2.1534128189086914,-1.3358074140599747,-2.5217846075641077,6.134879576950826,1.0083203315734863,-2.709252897893087
1708433801.1043286,-2.15338397026062,-1.3357911121896286,-2.5218291918383997,6.134842622071066,1.0083575248718262,-2.709226910267965
1708433801.1063483,-2.153420925140381,-1.3358443242362519,-2.5218172709094446,6.134863245278158,1.008345365524292,-2.7091532389270228
1708433801.108341,-2.153441905975342,-1.3358443540385743,-2.5218098799334925,6.134760725289144,1.0083452463150024,-2.7092023531543177
1708433801.1103435,-2.153367042541504,-1.3358280521682282,-2.5217559973346155,6.134854543000021,1.0083167552947998,-2.7091696898089808
1708433801.1123471,-2.153420925140381,-1.335816205745079,-2.5217846075641077,6.134890305786886,1.008333444595337,-2.709177080784933
1708433801.114363,-2.153433322906494,-1.3357788634351273,-2.5217726866351526,6.134826290398397,1.0083496570587158,-2.709193531666891
1708433801.1163366,-2.1534042358398438,-1.3358117651990433,-2.5217772165881556,6.134878384857931,1.008345365524292,-2.709156338368551
1708433801.118344,-2.153420925140381,-1.3358399283936997,-2.5217891375171106,6.134890305786886,1.0082261562347412,-2.7091904322253626
1708433801.120345,-2.153388500213623,-1.3357570332339783,-2.5217934290515345,6.134947049408712,1.0082917213439941,-2.7091904322253626
1708433801.1223586,-2.153420925140381,-1.33577016115699,-2.5217772165881556,6.134938227921285,1.0083377361297607,-2.709165159855978
1708433801.1243882,-2.153391122817993,-1.3358149242452164,-2.5217891375171106,6.134966718941488,1.008284330368042,-2.7092142740832728
1708433801.126325,-2.1534647941589355,-1.3358030331185837,-2.5217726866351526,6.13495038726882,1.008345365524292,-2.709181610737936
1708433801.1283774,-2.1534085273742676,-1.335810513501503,-2.5217891375171106,6.134941565781393,1.008312463760376,-2.7091949621783655
1708433801.1303666,-2.1534464359283447,-1.335765780215599,-2.5217726866351526,6.134978639870443,1.008312463760376,-2.709160868321554
1708433801.1323497,-2.153433322906494,-1.3358205270818253,-2.5217846075641077,6.13495038726882,1.0082874298095703,-2.709193531666891
1708433801.1343496,-2.1534252166748047,-1.3357986968806763,-2.5217726866351526,6.134962308197775,1.0082799196243286,-2.709147040043966
1708433801.1363585,-2.153441905975342,-1.3358073991588135,-2.5217471758471888,6.134929406433859,1.0083048343658447,-2.709160629902975
1708433801.1383479,-2.153437614440918,-1.3357626807740708,-2.521780077611105,6.134994852333822,1.0082755088806152,-2.7091622988330286
1708433801.1403542,-2.1534578800201416,-1.3358399283936997,-2.5217726866351526,6.134957897454061,1.008300542831421,-2.709160868321554
1708433801.142355,-2.153444766998291,-1.335816190843918,-2.5217846075641077,6.135026442795553,1.0082679986953735,-2.7091742197619837
1708433801.144366,-2.153371572494507,-1.3358117651990433,-2.5217891375171106,6.135022151261129,1.008358359336853,-2.709144417439596
1708433801.1463804,-2.153449058532715,-1.3358312410167237,-2.5217846075641077,6.135019051819601,1.008300542831421,-2.709144417439596
1708433801.1483352,-2.153420925140381,-1.3358487796834488,-2.5217276255237024,6.135038482933798,1.0083048343658447,-2.709177080784933
1708433801.1503465,-2.1534085273742676,-1.335857556467392,-2.5217605272876185,6.134998309403219,1.0082591772079468,-2.709209982548849
1708433801.1523457,-2.1534252166748047,-1.3358030033162613,-2.521780077611105,6.134993898659506,1.008309245109558,-2.709172789250509
1708433801.1543565,-2.153437614440918,-1.3358608794263382,-2.5217259565936487,6.1350265620048425,1.008296251296997,-2.7091904322253626
1708433801.1563406,-2.153433322906494,-1.3357701909593125,-2.5217559973346155,6.135030972748556,1.0083211660385132,-2.7091949621783655
1708433801.1583545,-2.1534290313720703,-1.335819349890091,-2.5217726866351526,6.1349806664283655,1.0083377361297607,-2.7091696898089808
1708433801.1603236,-2.153399705886841,-1.3358073991588135,-2.5217817465411585,6.135055053025045,1.008300542831421,-2.709165159855978
1708433801.1623447,-2.1534509658813477,-1.3358335954001923,-2.5217517058001917,6.135050642281332,1.0082917213439941,-2.709209982548849
1708433801.164328,-2.153395414352417,-1.335770146255829,-2.5217650572406214,6.135066973954,1.0083048343658447,-2.709214512501852
1708433801.1663525,-2.1534290313720703,-1.3358312410167237,-2.5217891375171106,6.135041940003195,1.008296251296997,-2.709198061619894
1708433801.1683297,-2.153441905975342,-1.3358280521682282,-2.5217350164996546,6.135071384697714,1.008300542831421,-2.709200922642843
1708433801.170347,-2.153391122817993,-1.3358149540475388,-2.5217350164996546,6.135055053025045,1.0083048343658447,-2.709189001713888
1708433801.1723564,-2.153444766998291,-1.3358399730971833,-2.5217846075641077,6.135020839958944,1.0083167552947998,-2.7091532389270228
1708433801.174329,-2.153444766998291,-1.3358030331185837,-2.5217772165881556,6.135070073395529,1.0082886219024658,-2.709165159855978
1708433801.1763506,-2.1534647941589355,-1.335803048019745,-2.5217891375171106,6.135062563210287,1.0082930326461792,-2.709181610737936
1708433801.1783285,-2.1534035205841064,-1.3358521473458786,-2.5217726866351526,6.135025131493368,1.0082842111587524,-2.709209982548849
1708433801.180354,-2.1534247398376465,-1.335819349890091,-2.5217350164996546,6.135062563210287,1.0082842111587524,-2.709123436604635
1708433801.1824167,-2.153444766998291,-1.3358030331185837,-2.5218053499804896,6.135085332184591,1.008309245109558,-2.709172789250509
1708433801.184356,-2.1534817218780518,-1.3357867461493989,-2.5218098799334925,6.1350897429283044,1.008296251296997,-2.7092142740832728
1708433801.186417,-2.153477191925049,-1.3357910972884675,-2.5217817465411585,6.135044920235433,1.008300542831421,-2.709177080784933
1708433801.188331,-2.153477191925049,-1.3357779395631333,-2.5217846075641077,6.135081994324484,1.0082974433898926,-2.7092188040362757
1708433801.1903517,-2.153456211090088,-1.3358521622470398,-2.5217891375171106,6.135147917061605,1.008272409439087,-2.709181610737936
1708433801.192348,-2.153449058532715,-1.3359054338983078,-2.5217772165881556,6.135056841164388,1.0082929134368896,-2.7092447916613978
1708433801.194328,-2.1534290313720703,-1.335832492714264,-2.5217772165881556,6.135036098748007,1.008312463760376,-2.709198061619894
1708433801.1964161,-2.1534247398376465,-1.3358117204955597,-2.5217681566821497,6.135081994324484,1.008300542831421,-2.709181610737936
1708433801.198344,-2.1533992290496826,-1.3358398836902161,-2.5217559973346155,6.135144340782919,1.008313775062561,-2.709240261708395
1708433801.2003448,-2.153412342071533,-1.3358280223659058,-2.5218010584460657,6.135138976364889,1.0082886219024658,-2.709189001713888
1708433801.202341,-2.1534693241119385,-1.3358887296966095,-2.5217891375171106,6.135092842369833,1.008300542831421,-2.709139887486593
1708433801.2043555,-2.153449058532715,-1.335835577254631,-2.5218053499804896,6.1351345656211755,1.0082974433898926,-2.709193531666891
1708433801.2063482,-2.153437614440918,-1.3358531457236786,-2.5218172709094446,6.1351016638572595,1.008309245109558,-2.709147040043966
1708433801.208353,-2.153477191925049,-1.3358193051866074,-2.5217681566821497,6.135125744133749,1.0082597732543945,-2.709165159855978
1708433801.2103305,-2.1534290313720703,-1.3358442795327683,-2.521812979375021,6.135106074600973,1.008300542831421,-2.709205452595846
1708433801.2123573,-2.1534035205841064,-1.335823656325676,-2.5217846075641077,6.135113584786215,1.0082679986953735,-2.709209982548849
1708433801.2143195,-2.153444766998291,-1.3357788783362885,-2.5217483679400843,6.135122406273641,1.0083048343658447,-2.70920974413027
1708433801.2163384,-2.1535027027130127,-1.3358653348735352,-2.5217350164996546,6.135158407479086,1.0082510709762573,-2.7092178503619593
1708433801.2183182,-2.153444766998291,-1.3358073842576523,-2.5217772165881556,6.135117995529928,1.008259892463684,-2.709209982548849
1708433801.220366,-2.1534247398376465,-1.3357911568931122,-2.5217393080340784,6.135138976364889,1.0082812309265137,-2.7091828028308313
1708433801.2223368,-2.153437614440918,-1.3358073991588135,-2.5217726866351526,6.135106074600973,1.008312463760376,-2.7092586199389856
1708433801.224326,-2.153395414352417,-1.3358800870231171,-2.5218010584460657,6.135064232140341,1.008300542831421,-2.7092347780810755
1708433801.2263348,-2.1534605026245117,-1.3358653646758576,-2.5217559973346155,6.135134684830465,1.0083167552947998,-2.7092748324023646
1708433801.2283647,-2.1534533500671387,-1.3358149540475388,-2.5217517058001917,6.135092842369833,1.0082679986953735,-2.7092629114734095
1708433801.230378,-2.153440475463867,-1.3358073991588135,-2.5217891375171106,6.135052430420675,1.008309245109558,-2.7092958132373255
1708433801.2323766,-2.1534578800201416,-1.3357911121896286,-2.5217681566821497,6.135080921440878,1.0082554817199707,-2.709280792866842
1708433801.2343507,-2.1534650325775146,-1.3357911717942734,-2.5217681566821497,6.135171520500936,1.008284330368042,-2.70927340189089
1708433801.2363229,-2.153391122817993,-1.3358725321343918,-2.5217846075641077,6.135109174042501,1.0083211660385132,-2.7093358675586146
1708433801.2383258,-2.1534078121185303,-1.3358399730971833,-2.5217979590045374,6.1351345656211755,1.008300542831421,-2.7093475500689905
1708433801.240321,-2.1534693241119385,-1.3357899498990555,-2.521775547658102,6.1350897429283044,1.008300542831421,-2.7093358675586146
1708433801.2423265,-2.1534578800201416,-1.3358399730971833,-2.5217772165881556,6.135048019676962,1.0082637071609497,-2.7093504110919397
1708433801.244337,-2.153444766998291,-1.3358391237309952,-2.5217650572406214,6.135097253113546,1.0083167552947998,-2.7094202677356165
1708433801.2463465,-2.153420925140381,-1.3358565729907532,-2.5217650572406214,6.135113465576925,1.008300542831421,-2.7094150225268763
1708433801.248341,-2.153433322906494,-1.3358399730971833,-2.5217605272876185,6.135086405068197,1.008300542831421,-2.7094674746142786
1708433801.2503216,-2.153444766998291,-1.3358149540475388,-2.5217681566821497,6.1351148960884,1.008312463760376,-2.709449831639425
1708433801.2523348,-2.153437614440918,-1.3358443242362519,-2.5217471758471888,6.135110485344686,1.0083496570587158,-2.7095487753497522
1708433801.2543318,-2.153449058532715,-1.3358105284026642,-2.521775786076681,6.135020839958944,1.0083290338516235,-2.7095351854907435
1708433801.2563303,-2.153437614440918,-1.3358236861279984,-2.5217517058001917,6.134972083359518,1.0083080530166626,-2.7095335165606897
1708433801.2583349,-2.1534578800201416,-1.3358531457236786,-2.5217934290515345,6.135055053025045,1.008296251296997,-2.7096076647387903
1708433801.26033,-2.1533758640289307,-1.3357745122960587,-2.5217846075641077,6.135046231537618,1.008345365524292,-2.7096596399890345
1708433801.2623494,-2.153371572494507,-1.335798667078354,-2.5217772165881556,6.134964096337118,1.0083036422729492,-2.70970589319338
1708433801.2643628,-2.1533970832824707,-1.3357745122960587,-2.5217514673816126,6.135005819588461,1.0083398818969727,-2.7097678820239466
1708433801.266328,-2.153416633605957,-1.3358399730971833,-2.5218053499804896,6.134932744293966,1.0083619356155396,-2.7098210493670862
1708433801.2683403,-2.1534085273742676,-1.3357986819795151,-2.5217846075641077,6.134971129685201,1.0083575248718262,-2.7098360697375696
1708433801.2703342,-2.153381109237671,-1.3357625913671036,-2.521763865147726,6.134938227921285,1.0083606243133545,-2.7098966280566614
1708433801.2723706,-2.1533970832824707,-1.3358073991588135,-2.5217681566821497,6.134921896248617,1.0083487033843994,-2.7099249998675745
1708433801.2743404,-2.1533846855163574,-1.3357736033252259,-2.52179199854006,6.134946930199423,1.0083321332931519,-2.7100303808795374
1708433801.2763345,-2.1534173488616943,-1.335794286136963,-2.521803919469015,6.1348739741142175,1.0083606243133545,-2.710074011479513
1708433801.2783647,-2.1533432006835938,-1.3358161610415955,-2.521803919469015,6.134878384857931,1.008377194404602,-2.710141960774557
1708433801.2803361,-2.153369426727295,-1.3357788634351273,-2.5218337217914026,6.134835111885824,1.00838041305542,-2.710280243550436
1708433801.2823339,-2.1533451080322266,-1.3358193200877686,-2.521845881138937,6.134773957520284,1.0083966255187988,-2.7102888266192835
1708433801.2843654,-2.153341293334961,-1.3358073693564911,-2.5217846075641077,6.134787189751425,1.008405327796936,-2.710428539906637
1708433801.28633,-2.153287410736084,-1.3357495975545426,-2.521775547658102,6.134727108269491,1.008408546447754,-2.7105491797076624
1708433801.2883544,-2.1532840728759766,-1.335774542098381,-2.521808449422018,6.134621369629659,1.0084166526794434,-2.7106202284442347
1708433801.2903268,-2.1532442569732666,-1.335758165722229,-2.52181584039797,6.134569036751547,1.0084491968154907,-2.7107179800616663
1708433801.2923276,-2.1532204151153564,-1.3357713979533692,-2.521808449422018,6.134603011399069,1.0084284543991089,-2.7108619848834437
1708433801.2943344,-2.153244972229004,-1.3358130168965836,-2.5218337217914026,6.134497034340658,1.0084688663482666,-2.7109039465533655
1708433801.29633,-2.1531965732574463,-1.3357551258853455,-2.521820370350973,6.134463774948873,1.0085095167160034,-2.7111075560199183
1708433801.2983413,-2.153127908706665,-1.3357312840274354,-2.521820370350973,6.134427654534139,1.0085495710372925,-2.7111528555499476
1708433801.300336,-2.1531665325164795,-1.3357344728759308,-2.5218611399279993,6.134269344597616,1.0085903406143188,-2.7113798300372522
1708433801.3023248,-2.1530685424804688,-1.3357507449439545,-2.5218685309039515,6.134279477387228,1.0086350440979004,-2.7115827242480677
1708433801.3043387,-2.1530606746673584,-1.335689978008606,-2.5218895117389124,6.134219395905294,1.008641242980957,-2.7116873900042933
1708433801.306338,-2.153057098388672,-1.3357519221356888,-2.5218597094165247,6.134150731354513,1.0086493492126465,-2.7119107882129114
1708433801.3083456,-2.1530094146728516,-1.3357280653766175,-2.5219011942492884,6.134083139687338,1.0087344646453857,-2.712024752293722
1708433801.3103275,-2.1529898643493652,-1.335670219068863,-2.521911923085348,6.1340277073676965,1.0087379217147827,-2.712226454411642
1708433801.3123357,-2.152981758117676,-1.3357042980245133,-2.521920982991354,6.133889066963949,1.0088274478912354,-2.7124269644366663
1708433801.314341,-2.15285587310791,-1.3356911701015015,-2.521911923085348,6.133818375855245,1.008817434310913,-2.7126198450671595
1708433801.3163366,-2.1528239250183105,-1.3356877130321045,-2.521973196660177,6.133746373444357,1.0088458061218262,-2.7128525416003626
1708433801.318355,-2.1528778076171875,-1.3356683117202302,-2.522006336842672,6.13370298126296,1.0089191198349,-2.713065210972921
1708433801.3203466,-2.1528186798095703,-1.3356150549701233,-2.5219972769366663,6.133545148163595,1.0088939666748047,-2.7133308092700403
1708433801.3223248,-2.152775287628174,-1.3356725883534928,-2.5220332781421106,6.133548486023702,1.0089335441589355,-2.713538710271017
1708433801.3243437,-2.1527132987976074,-1.3356312972358246,-2.522008005772726,6.1334112761314294,1.008966326713562,-2.7138407866107386
1708433801.3263505,-2.152674674987793,-1.3356575679830094,-2.522027317677633,6.133343684464254,1.008976936340332,-2.7141106764422815
1708433801.3283598,-2.1526620388031006,-1.3355657321265717,-2.522064987813131,6.133197772293844,1.0090514421463013,-2.714375082646505
1708433801.3303714,-2.152647018432617,-1.3355952215245743,-2.5221129099475306,6.133163797646322,1.0090874433517456,-2.714618984852926
1708433801.3323777,-2.1525871753692627,-1.335599572663643,-2.522111241017477,6.133051740914144,1.0090501308441162,-2.714933220540182
1708433801.3343422,-2.1525332927703857,-1.3356206280044098,-2.522170130406515,6.132935035019674,1.009123682975769,-2.7152841726886194
1708433801.3363683,-2.1525111198425293,-1.3355385673097153,-2.522139851246969,6.132888185768881,1.0091429948806763,-2.715595308934347
1708433801.3383284,-2.152431011199951,-1.3355801713517685,-2.5222252050982874,6.132776129036703,1.0091465711593628,-2.7159398237811487
1708433801.3403292,-2.152411460876465,-1.335547314291336,-2.5222297350512903,6.132651793747701,1.0091824531555176,-2.71629769006838
1708433801.3423245,-2.1523585319519043,-1.3354953688434144,-2.522244993840353,6.132564770966329,1.0092272758483887,-2.716663185750143
1708433801.3443406,-2.152277946472168,-1.335548461680748,-2.522306267415182,6.132443892746725,1.0092636346817017,-2.7170572916613978
1708433801.3463476,-2.1522390842437744,-1.3354833585074921,-2.5222883860217493,6.132358062058248,1.0093114376068115,-2.7173693815814417
1708433801.348349,-2.15217924118042,-1.3355205816081543,-2.522299114857809,6.132233965187826,1.0093060731887817,-2.7177510897265833
1708433801.3503282,-2.1521682739257812,-1.335496501331665,-2.5223169962512415,6.132130253105917,1.0093508958816528,-2.7181385199176233
1708433801.3523414,-2.1520588397979736,-1.3354592782310029,-2.5223844687091272,6.131979572563925,1.009427547454834,-2.718560520802633
1708433801.3543441,-2.151993751525879,-1.33546798050914,-2.522363249455587,6.1318851588066,1.0094350576400757,-2.7190359274493616
1708433801.3563414,-2.152028799057007,-1.3354322922280808,-2.5224247614489954,6.131790506630697,1.0094788074493408,-2.7194958368884485
1708433801.3583431,-2.151904344558716,-1.3354247373393555,-2.522465531026022,6.131636607437887,1.0095432996749878,-2.7200546900378626
1708433801.3603604,-2.1518566608428955,-1.335473583345749,-2.522489372883932,6.131484257965841,1.0095793008804321,-2.7204516569720667
1708433801.3623466,-2.1517930030822754,-1.3353878122619172,-2.522501293812887,6.131386148720541,1.0096484422683716,-2.7209373156176966
1708433801.364355,-2.151702880859375,-1.3353846085122605,-2.522513214741842,6.1312827942665,1.0096888542175293,-2.7214134375201624
1708433801.3663645,-2.151615619659424,-1.3353593212417145,-2.5225330034839075,6.131146538048544,1.0097116231918335,-2.7219303289996546
1708433801.3683305,-2.1515979766845703,-1.3353323203376313,-2.5225940386401575,6.130965816765585,1.0097553730010986,-2.7223785559283655
1708433801.3703377,-2.1515254974365234,-1.335341067319252,-2.522571627293722,6.130821931153097,1.00984525680542,-2.7229517141925257
1708433801.3723528,-2.1514484882354736,-1.3353215766004105,-2.5226407686816614,6.13066183307723,1.0098755359649658,-2.7234626452075403
1708433801.3743594,-2.1513285636901855,-1.3353215766004105,-2.5226526896106165,6.130534279137411,1.009920597076416,-2.72395903268923
1708433801.376352,-2.151292324066162,-1.33531408131633,-2.5226855913745325,6.130345809250631,1.0099431276321411,-2.7244940439807337
1708433801.3783371,-2.1512341499328613,-1.3352126342109223,-2.52268892923464,6.130272972374716,1.0100034475326538,-2.7251411120044153
1708433801.380335,-2.151158094406128,-1.3352289211801072,-2.522738043461935,6.130071389466085,1.0101293325424194,-2.7256181875811976
1708433801.3823302,-2.151057481765747,-1.3351844412139435,-2.5226946512805384,6.1298948405082605,1.0101324319839478,-2.726253334675924
1708433801.3843336,-2.1509814262390137,-1.3351398718408127,-2.5227773825274866,6.129780041962423,1.0102298259735107,-2.72681171098818
1708433801.3863432,-2.1509265899658203,-1.3351975244334717,-2.5227683226214808,6.129619705467977,1.0102362632751465,-2.727449957524435
1708433801.3883786,-2.150822401046753,-1.335157410507538,-2.522820774708883,6.129407512932577,1.01029634475708,-2.7281199137317103
1708433801.3903487,-2.1507411003112793,-1.3351170283607026,-2.5228567759143274,6.12926338890151,1.0103651285171509,-2.7287822405444544
1708433801.3923354,-2.1506457328796387,-1.3351257604411622,-2.5229135195361536,6.12911211231307,1.0104432106018066,-2.729471270238058
1708433801.3943486,-2.150524854660034,-1.3350637269071122,-2.522900168095724,6.128981339722433,1.0104658603668213,-2.7301748434649866
1708433801.3963552,-2.1504948139190674,-1.335101918583252,-2.522928778325216,6.128773081093588,1.010521650314331,-2.730896774922506
1708433801.398383,-2.150407552719116,-1.3350408238223572,-2.5229316393481653,6.1285979626472376,1.0105699300765991,-2.731590811406271
1708433801.4003406,-2.150346279144287,-1.3350649935058136,-2.523000780736105,6.128360616951742,1.0106045007705688,-2.7323296705829065
1708433801.402374,-2.1502182483673096,-1.3349753481200715,-2.523020092641012,6.128197181015768,1.0107063055038452,-2.733060900365011
1708433801.404374,-2.1502206325531006,-1.3349769574454804,-2.523073975239889,6.128013121872701,1.0108113288879395,-2.7339163462268274
1708433801.406345,-2.150087356567383,-1.3350266081145783,-2.5230937639819544,6.127850639611044,1.0108625888824463,-2.7347093264209192
1708433801.4083734,-2.150045871734619,-1.334994376902916,-2.5231085459338587,6.127625214844503,1.0109074115753174,-2.735525433217184
1708433801.410328,-2.1499195098876953,-1.334942103629448,-2.5231850782977503,6.1274664280708215,1.0110279321670532,-2.7363582293139856
1708433801.4123518,-2.1498489379882812,-1.334925816660263,-2.5232048670398157,6.127263653069296,1.0110551118850708,-2.737182680760519
1708433801.414331,-2.1496996879577637,-1.3349345487407227,-2.523261610661642,6.127003180771627,1.0111477375030518,-2.738095823918478
1708433801.4163234,-2.1496336460113525,-1.3348484349301835,-2.52324349084963,6.12679539897994,1.0112451314926147,-2.738983217869894
1708433801.4183598,-2.1495203971862793,-1.3348377805999299,-2.5232840220080774,6.126644718437948,1.0112712383270264,-2.7398198286639612
1708433801.4203496,-2.149416208267212,-1.3348747056773682,-2.523336712514059,6.126400816231527,1.0113598108291626,-2.7408621946917933
1708433801.4223611,-2.149401903152466,-1.3347941798022767,-2.523397986088888,6.1261645434196375,1.0113948583602905,-2.741788689290182
1708433801.4243495,-2.1492502689361572,-1.3348299127868195,-2.5233636538134974,6.125940668373861,1.011443018913269,-2.7427504698382776
1708433801.426336,-2.1491096019744873,-1.334781975751259,-2.523473087941305,6.125765311508932,1.0115325450897217,-2.743739906941549
1708433801.4283366,-2.149038791656494,-1.3347790998271485,-2.523475948964254,6.125512230187216,1.0116170644760132,-2.7446821371661585
1708433801.4303544,-2.148942470550537,-1.3347585660270234,-2.5235121885882776,6.1252933619316,1.0116723775863647,-2.7457504908191126
1708433801.432361,-2.1488218307495117,-1.334719256763794,-2.52356464067568,6.125028359680929,1.0117567777633667,-2.7468486467944544
1708433801.4343524,-2.148728132247925,-1.334719256763794,-2.523637835179464,6.124756443291464,1.0117305517196655,-2.747898880635397
1708433801.4363365,-2.1486237049102783,-1.3347355288318177,-2.523660723363058,6.124590980797567,1.011839747428894,-2.7490392366992396
1708433801.4383414,-2.148524045944214,-1.3346875470927735,-2.523733917866842,6.124339329987325,1.0118669271469116,-2.7500837484942835
1708433801.440338,-2.148372173309326,-1.3346832555583497,-2.5237324873553675,6.124140250473776,1.011997103691101,-2.7511757055865687
1708433801.4423356,-2.148267984390259,-1.3346431267312546,-2.523780409489767,6.123830306320944,1.0120606422424316,-2.7524357477771204
1708433801.4443521,-2.148131847381592,-1.3346236509135743,-2.5237954298602503,6.123623716622152,1.0121251344680786,-2.753605667744772
1708433801.446403,-2.148045063018799,-1.3345920157483597,-2.5238733927356165,6.1233065007026575,1.0121675729751587,-2.7547605673419397
1708433801.4483478,-2.147876739501953,-1.3345388037017365,-2.523893181477682,6.123117196350851,1.0122483968734741,-2.7558496634112757
1708433801.4503324,-2.147731065750122,-1.33453123391185,-2.523961846028463,6.122853386193075,1.0123337507247925,-2.7570279280291956
1708433801.4523559,-2.147630214691162,-1.3345070344260712,-2.52396804491152,6.122539508133688,1.012458324432373,-2.7581682840930384
1708433801.4543471,-2.147517204284668,-1.3345127564719697,-2.5240324179278772,6.122320997505941,1.012542486190796,-2.7594199816333216
1708433801.456349,-2.147413492202759,-1.3344431978515168,-2.5240684191333216,6.122061955719747,1.0125972032546997,-2.760599438344137
1708433801.4583473,-2.14725399017334,-1.334479884510376,-2.524141852055685,6.121777999192037,1.0127350091934204,-2.7618752161609095
1708433801.4603574,-2.1471266746520996,-1.334460662012436,-2.5241149107562464,6.1215683100517175,1.012826919555664,-2.7631426493274134
1708433801.4623432,-2.147035598754883,-1.3343951863101502,-2.5242095629321497,6.121211159020223,1.0129063129425049,-2.7644079367267054
1708433801.4643545,-2.1468474864959717,-1.3343810004046937,-2.524261776600973,6.120928871422567,1.0129992961883545,-2.765742365513937
1708433801.4663332,-2.146752119064331,-1.3343401116183777,-2.5242770353900355,6.120634305268087,1.0130211114883423,-2.7670844236956995
1708433801.4683635,-2.146613359451294,-1.3343409609845658,-2.5242918173419397,6.1203263876731775,1.013192057609558,-2.7683876196490687
1708433801.470353,-2.1464273929595947,-1.3342961382916947,-2.524344507847921,6.120072471886434,1.0132313966751099,-2.769733730946676
1708433801.4723368,-2.1463332176208496,-1.3343084317496796,-2.5243876616107386,6.11972867229537,1.0132616758346558,-2.771073643361227
1708433801.4743454,-2.146171808242798,-1.3342648309520264,-2.524428431187765,6.119442808419027,1.0133875608444214,-2.7724152247058313
1708433801.4763594,-2.146026134490967,-1.3342366230538865,-2.5244885126696985,6.119183051377096,1.0134432315826416,-2.7737842241870325
1708433801.4783635,-2.1459128856658936,-1.3342378598502656,-2.524606768284933,6.118864524155416,1.0135351419448853,-2.7751756350146692
1708433801.480368,-2.1458113193511963,-1.3341395270875473,-2.524621550236837,6.118553387909689,1.0135834217071533,-2.776665274296896
1708433801.4823627,-2.145663022994995,-1.334160493021347,-2.524644200001852,6.118266808777609,1.0136926174163818,-2.778062168751852
1708433801.484346,-2.1454732418060303,-1.3341290962747117,-2.5247088114367884,6.117964732437887,1.0137962102890015,-2.779574457799093
1708433801.4863677,-2.1453428268432617,-1.3341181141189118,-2.5247209707843226,6.117661106377401,1.013875961303711,-2.7810776869403284
1708433801.4883468,-2.14521861076355,-1.3341181588223954,-2.524780813847677,6.117313134461202,1.0139613151550293,-2.782618824635641
1708433801.4903631,-2.1450846195220947,-1.3340614450028916,-2.5248242060290735,6.116921531945028,1.0140411853790283,-2.784175459538595
1708433801.4923422,-2.1449615955352783,-1.3340495389750977,-2.524867836629049,6.116708981781759,1.0141297578811646,-2.7856667677508753
1708433801.4943547,-2.1448099613189697,-1.3339688044837494,-2.5249410311328333,6.116365539818563,1.0141510963439941,-2.7871859709369105
1708433801.4963558,-2.1446127891540527,-1.3339688342860718,-2.5250054041491907,6.116050231247701,1.014272928237915,-2.7886865774737757
1708433801.4983554,-2.144411563873291,-1.3339405816844483,-2.5250538031207483,6.115645158081808,1.0144270658493042,-2.790250364934103
1708433801.5003479,-2.1442816257476807,-1.333893136387207,-2.525080744420187,6.115319001465597,1.014440894126892,-2.7917664686786097
1708433801.5023608,-2.144118309020996,-1.3339107644608994,-2.525100294743673,6.114956128388204,1.0145329236984253,-2.7932801882373255
1708433801.5043683,-2.1439828872680664,-1.333873228435852,-2.5251768271075647,6.114609467774191,1.0146303176879883,-2.7948601881610315
1708433801.5063376,-2.143791437149048,-1.333822564487793,-2.525233332310812,6.114339816361227,1.014718770980835,-2.796466652547018
1708433801.5083516,-2.1436398029327393,-1.3337852221778412,-2.5252488295184534,6.113985168724813,1.014810562133789,-2.797990862523214
1708433801.510344,-2.1434221267700195,-1.3337865632823487,-2.5252800623523157,6.113707172661581,1.014890193939209,-2.799511734639303
1708433801.5123446,-2.1432995796203613,-1.333692492251732,-2.525332752858297,6.113339531212606,1.0149699449539185,-2.801220242177145
1708433801.5143645,-2.1431853771209717,-1.3336643290570755,-2.5253968874560755,6.112901794701376,1.0150917768478394,-2.8029139677630823
1708433801.5163667,-2.14298152923584,-1.3335923117450257,-2.5254538694964808,6.112589585572042,1.0151878595352173,-2.804584328328268
1708433801.5183463,-2.142775774002075,-1.3336386245540162,-2.5254975000964563,6.1122100231941126,1.0152584314346313,-2.8062527815448206
1708433801.5203524,-2.142634630203247,-1.3335865896991272,-2.525557343159811,6.1118178246314905,1.0153470039367676,-2.808007303868429
1708433801.5223382,-2.142454147338867,-1.3335385781577607,-2.5255845228778284,6.111459243088522,1.0154236555099487,-2.809730831776754
1708433801.5243359,-2.1422290802001953,-1.3335352700999756,-2.525632683430807,6.111130463867941,1.015515685081482,-2.8115854899035853
1708433801.526346,-2.1420538425445557,-1.3334954541972657,-2.5256927649127405,6.110758530884542,1.0155836343765259,-2.8133140246020716
1708433801.528344,-2.141906499862671,-1.3334624034217377,-2.525723997746603,6.110448705941,1.015733242034912,-2.8151207605945032
1708433801.5303574,-2.1417362689971924,-1.3334681552699585,-2.5257795492755335,6.110043990402975,1.015812873840332,-2.816894594823019
1708433801.5323508,-2.141580581665039,-1.3334041249803086,-2.5258410612689417,6.109665620117941,1.015826940536499,-2.8186500708209437
1708433801.5344532,-2.1413562297821045,-1.333396316771843,-2.5259340445147913,6.109344112664022,1.0159833431243896,-2.820491377507345
1708433801.5363545,-2.141164541244507,-1.3333559793284913,-2.5259607473956507,6.10890148857192,1.016085147857666,-2.822312895451681
1708433801.5383615,-2.1409897804260254,-1.3333232563785096,-2.5260165373431605,6.108445632248678,1.0161482095718384,-2.824127976094381
1708433801.5403502,-2.140794277191162,-1.3332681965878983,-2.526059929524557,6.108043539315023,1.0163389444351196,-2.8258708159076136
1708433801.5423543,-2.140592336654663,-1.3332725328258057,-2.5261696020709437,6.107613432198324,1.0163692235946655,-2.8276198546039026
1708433801.5443654,-2.1403796672821045,-1.3331901592067261,-2.526208225880758,6.107169496804037,1.0165190696716309,-2.8295462767230433
1708433801.5463512,-2.140216112136841,-1.3331871938756485,-2.5262816588031214,6.10681306102828,1.0165910720825195,-2.831355396901266
1708433801.548372,-2.1399354934692383,-1.3332335662892838,-2.526280466710226,6.1063445685203455,1.0166949033737183,-2.8332911173449915
1708433801.5503733,-2.13978910446167,-1.333164708023407,-2.5263477007495325,6.105947005539694,1.0168076753616333,-2.8351317087756556
1708433801.5523458,-2.139524459838867,-1.3331242513707657,-2.526407782231466,6.105508672982015,1.0168622732162476,-2.8371384779559534
1708433801.5543482,-2.139301300048828,-1.3330722016147156,-2.5265262762652796,6.10510669925765,1.0169670581817627,-2.8390782515155237
1708433801.5563455,-2.1391067504882812,-1.3330736023238678,-2.5265398661242884,6.104641783028402,1.0170665979385376,-2.841059748326437
1708433801.558351,-2.138857841491699,-1.3330331456712265,-2.526604477559225,6.104245412140646,1.0171836614608765,-2.842957083378927
1708433801.5603452,-2.138651132583618,-1.3330331605723877,-2.526656452809469,6.103776442795553,1.0172830820083618,-2.8450351397143763
1708433801.5623405,-2.1383919715881348,-1.332976297741272,-2.526712242756979,6.1033105728919885,1.0174119472503662,-2.8471887747394007
1708433801.5643451,-2.138132095336914,-1.3329572093537827,-2.5267391840564173,6.102953898697653,1.0174952745437622,-2.8491628805743616
1708433801.566342,-2.1379480361938477,-1.332949475651123,-2.526848856602804,6.102424847870626,1.0176403522491455,-2.8511765638934534
1708433801.5683458,-2.1376848220825195,-1.332909272318222,-2.5268996397601526,6.101963388710775,1.017724871635437,-2.853161398564474
1708433801.5703487,-2.1374576091766357,-1.3329270643046875,-2.526980463658468,6.101499783783712,1.0178077220916748,-2.85523492494692
1708433801.572351,-2.1372227668762207,-1.332870514397957,-2.527076784764425,6.10107837894515,1.0179487466812134,-2.857290331517355
1708433801.5743709,-2.1369471549987793,-1.332846389417984,-2.5270915667163294,6.100550639420309,1.0180493593215942,-2.859259907399313
1708433801.5763402,-2.136646032333374,-1.3328003299287339,-2.527180020009176,6.100228178292074,1.018100619316101,-2.8612681070910853
1708433801.5783606,-2.136428117752075,-1.3327315610698243,-2.5272565523730677,6.099714982300558,1.0182087421417236,-2.8633130232440394
1708433801.5803487,-2.1361896991729736,-1.3327152144959946,-2.5273240248309534,6.099318253784933,1.0183290243148804,-2.865286652241842
1708433801.5823345,-2.135913610458374,-1.332713322048523,-2.527355496083395,6.098847615509786,1.0184577703475952,-2.8673513571368616
1708433801.5843399,-2.1356661319732666,-1.3326609444669266,-2.5275023619281214,6.0983677981193445,1.0185291767120361,-2.869391743336813
1708433801.5863314,-2.1354103088378906,-1.3326490235379715,-2.5275607744800013,6.0979124186332605,1.0186821222305298,-2.8714872042285364
1708433801.5883465,-2.13515567779541,-1.332649053340294,-2.527583662663595,6.097381341248312,1.018819808959961,-2.873620096837179
1708433801.5903394,-2.134925365447998,-1.3326330047896882,-2.5277212301837366,6.096895205765524,1.0188816785812378,-2.8757579962359827
1708433801.5923572,-2.1346218585968018,-1.3326102954200287,-2.5277650992022913,6.096466886788168,1.019006609916687,-2.878016773854391
1708433801.5943472,-2.1343300342559814,-1.332593948846199,-2.527816120778219,6.095971691399374,1.0191270112991333,-2.8801327387439173
1708433801.5963638,-2.134070873260498,-1.3326028150371094,-2.5279372374164026,6.095493662148275,1.019230604171753,-2.8821540514575403
1708433801.598351,-2.1338248252868652,-1.3325623881867905,-2.5280004183398646,6.095040666847982,1.0193716287612915,-2.8842182795154017
1708433801.6003556,-2.133516550064087,-1.332566813831665,-2.528048578892843,6.094634759217062,1.0194352865219116,-2.8863304297076624
1708433801.602337,-2.1331958770751953,-1.3325712394765397,-2.5281487146960657,6.093997347145834,1.0195637941360474,-2.8884084860431116
1708433801.6043458,-2.1329174041748047,-1.3325681996396561,-2.5282326380359095,6.09351538398818,1.0197206735610962,-2.8904672304736536
1708433801.6063368,-2.132601737976074,-1.3325755906156083,-2.5282838980304163,6.092995989113607,1.019803524017334,-2.892653767262594
1708433801.60837,-2.1322972774505615,-1.3325416457704087,-2.5284050146686,6.092515694886007,1.01997709274292,-2.894770924245016
1708433801.6103537,-2.132047176361084,-1.3325636845878144,-2.5284937063800257,6.0920060751731775,1.020076870918274,-2.8969293276416224
1708433801.6123462,-2.1317150592803955,-1.3325517636588593,-2.5285733381854456,6.091437804489889,1.0202208757400513,-2.899032179509298
1708433801.6143417,-2.1314024925231934,-1.332584412103035,-2.5286484400378626,6.0909520266349695,1.0203948020935059,-2.9011815229998987
1708433801.616342,-2.1311450004577637,-1.3325592887452622,-2.528769556676046,6.090484249382772,1.0205018520355225,-2.9033287207232874
1708433801.6183422,-2.1308178901672363,-1.3324852299741288,-2.5287712256061,6.089874851494589,1.0206385850906372,-2.905504290257589
1708433801.620333,-2.1304855346679688,-1.3325756353190918,-2.5289090315448206,6.089437711029806,1.0207871198654175,-2.90769607225527
1708433801.6223357,-2.1302192211151123,-1.3326083731702347,-2.5290096441852015,6.088902461319723,1.020931363105774,-2.9099934736834925
1708433801.6243618,-2.129904270172119,-1.33255489290271,-2.529076878224508,6.088336336403646,1.021092176437378,-2.912236992512838
1708433801.6263347,-2.1295888423919678,-1.3325460267117997,-2.5291717688189905,6.0877747414405725,1.0212407112121582,-2.914381806050436
1708433801.6283453,-2.1291961669921875,-1.3325861406377335,-2.5292721430407923,6.087237822800436,1.0213481187820435,-2.916570250188009
1708433801.6303682,-2.1288859844207764,-1.3326147359660645,-2.529393498097555,6.0866994736488245,1.0215176343917847,-2.9186747709857386
1708433801.6323776,-2.1285548210144043,-1.3325861257365723,-2.52948505083193,6.08613287189559,1.021632194519043,-2.920842711125509
1708433801.634354,-2.128227710723877,-1.3326477718404313,-2.529595677052633,6.085598337441244,1.0218017101287842,-2.923011843358175
1708433801.6363435,-2.127903461456299,-1.3326147359660645,-2.529672447835104,6.085073339730062,1.0219203233718872,-2.925161663685934
1708433801.6383336,-2.1275529861450195,-1.3326596778682251,-2.52980882326235,6.084562527924337,1.022044062614441,-2.9273420015918177
1708433801.6403358,-2.12717342376709,-1.3327237379601975,-2.529895846043722,6.083974826126852,1.0222495794296265,-2.929591957722799
1708433801.6424398,-2.126850128173828,-1.3326490682414551,-2.530032459889547,6.083372700005331,1.0224192142486572,-2.931809965764181
1708433801.6443489,-2.126487970352173,-1.3327400845340271,-2.530111853276388,6.082905638008871,1.0226126909255981,-2.934108559285299
1708433801.6463606,-2.126095771789551,-1.3327389371446152,-2.530269209538595,6.082293498307028,1.0227515697479248,-2.936451260243551
1708433801.6483424,-2.1257617473602295,-1.3327596944621583,-2.530365292225973,6.081747996598043,1.022821068763733,-2.938688341771261
1708433801.650338,-2.1253650188446045,-1.332758293753006,-2.530492607747213,6.081190097122946,1.0230522155761719,-2.940925184880392
1708433801.652374,-2.124981641769409,-1.3328029823354264,-2.530600611363546,6.080607044487753,1.02312171459198,-2.94313627878298
1708433801.6543791,-2.1246232986450195,-1.3328270477107544,-2.5306924025165003,6.080110418587484,1.023287057876587,-2.945395056401388
1708433801.6563528,-2.1242213249206543,-1.3328705591014405,-2.5308285395251673,6.079498874932089,1.023508906364441,-2.9475653807269495
1708433801.658335,-2.123816728591919,-1.3328806918910523,-2.5309935251819056,6.078989374428549,1.0237267017364502,-2.94975716272463
1708433801.6603944,-2.123389720916748,-1.3329059791615983,-2.5310640970813196,6.078421819000997,1.023844599723816,-2.952002827321188
1708433801.6623337,-2.1229605674743652,-1.3329794567874451,-2.531203333531515,6.077914464264669,1.0240660905838013,-2.9541996161090296
1708433801.6643572,-2.122624158859253,-1.3329895746758957,-2.531377617512838,6.077335941582479,1.0242589712142944,-2.956454340611593
1708433801.666339,-2.1222047805786133,-1.3330389720252533,-2.5314720312701624,6.076720702439108,1.0244348049163818,-2.9586613813983362
1708433801.6683419,-2.121774196624756,-1.3330825132182618,-2.5316041151629847,6.076187956124105,1.0246270895004272,-2.9608822504626673
1708433801.67034,-2.121354341506958,-1.333097444181778,-2.5317404905902308,6.075548636704244,1.024786353111267,-2.963024918233053
1708433801.6723523,-2.120959997177124,-1.3331137907556077,-2.531917397175924,6.074999201088705,1.024949312210083,-2.9653146902667444
1708433801.6743538,-2.120492458343506,-1.33316624284301,-2.5321229139911097,6.074412572174825,1.0251965522766113,-2.967595879231588
1708433801.6763685,-2.120112895965576,-1.3332093071988602,-2.532212797795431,6.073880064278402,1.0253833532333374,-2.969881598149435
1708433801.6783526,-2.1196322441101074,-1.3332692247680207,-2.5323732534991663,6.073277342110433,1.0256216526031494,-2.9722681681262415
1708433801.6803737,-2.1192100048065186,-1.3332888943007966,-2.5325337092029017,6.072688567429342,1.0258216857910156,-2.9746156374560755
1708433801.6823459,-2.118805408477783,-1.3333706718734284,-2.5326760450946253,6.071986782341757,1.0260053873062134,-2.9768343607531946
1708433801.6843424,-2.118316888809204,-1.3333726686290284,-2.532815758381979,6.071467864304342,1.0262970924377441,-2.97903019586672
1708433801.6863325,-2.1178536415100098,-1.333424688582756,-2.53296405473818,6.070889103203573,1.0264227390289307,-2.98120886484255
1708433801.6883926,-2.117452621459961,-1.33345182359729,-2.5332146326648157,6.070408093720236,1.0265898704528809,-2.983513895665304
1708433801.6903574,-2.1169774532318115,-1.3335707497647782,-2.5333030859576624,6.069794285088339,1.0268481969833374,-2.985647741948263
1708433801.6923423,-2.1164731979370117,-1.3335340780070801,-2.5334678331958216,6.069166648178854,1.0270600318908691,-2.9879308382617396
1708433801.6943457,-2.115966558456421,-1.3336563420346756,-2.5336597601519983,6.06867133358077,1.0272809267044067,-2.9900878111468714
1708433801.6963513,-2.1154916286468506,-1.3337400567582627,-2.533835474644796,6.068010794907369,1.0275256633758545,-2.9922686258899134
1708433801.6983557,-2.115046501159668,-1.3338088554194947,-2.5340781847583216,6.067556488304891,1.0277453660964966,-2.9944775740252894
1708433801.7003417,-2.114508867263794,-1.333876059656479,-2.5341997782336634,6.0669487593467615,1.0279409885406494,-2.9967172781573694
1708433801.7023375,-2.11403489112854,-1.3339389574578782,-2.534492317830221,6.066402780800619,1.028230905532837,-2.99900991121401
1708433801.7043543,-2.1135356426239014,-1.3340062212995072,-2.534649674092428,6.065767276078024,1.0284680128097534,-3.0013235251056116
1708433801.7063425,-2.112992763519287,-1.334074543123581,-2.534825150166647,6.065262663155355,1.0286757946014404,-3.0035489241229456
1708433801.708361,-2.112539052963257,-1.3340645742467423,-2.535034958516256,6.064701187401571,1.028920292854309,-3.0056546370135706
1708433801.7103367,-2.1120364665985107,-1.3341899526170273,-2.535193983708517,6.0641623614128015,1.0291476249694824,-3.007779900227682
1708433801.712343,-2.1115198135375977,-1.3343136769584198,-2.5354068914996546,6.063593375473776,1.0293437242507935,-3.009970490132467
1708433801.7143536,-2.1109843254089355,-1.334394173031189,-2.5356021563159388,6.063067543297567,1.0296820402145386,-3.012103859578268
1708433801.716347,-2.110494613647461,-1.334478185778,-2.535807196293966,6.062485921173849,1.0298889875411987,-3.0141761938678187
1708433801.7183502,-2.109971284866333,-1.3346019995263596,-2.5359573999988,6.061911690026083,1.0301252603530884,-3.016313378010885
1708433801.7203598,-2.1094579696655273,-1.3346693974784394,-2.536144797001974,6.061263429909506,1.0303698778152466,-3.0184531847583216
1708433801.7223544,-2.1088902950286865,-1.3347891730121155,-2.5363367239581507,6.060817348748007,1.0306910276412964,-3.0204673449145716
1708433801.7243512,-2.1083590984344482,-1.3349010360291977,-2.5365782419787806,6.06015299537734,1.0309022665023804,-3.0226016680346888
1708433801.7263377,-2.107922077178955,-1.3349846613458176,-2.5367582480060022,6.05959032753066,1.0311800241470337,-3.0247114340411585
1708433801.7283554,-2.1073710918426514,-1.3350389909795304,-2.536990467702047,6.0590728400047205,1.0314651727676392,-3.026766840611593
1708433801.7303395,-2.106812000274658,-1.33517578363929,-2.537206474934713,6.058522331505575,1.0316804647445679,-3.028884474431173
1708433801.7324,-2.106297254562378,-1.3352670234492798,-2.537438933049337,6.057951319008627,1.0319973230361938,-3.030954186116354
1708433801.7343864,-2.1057586669921875,-1.3353660565665741,-2.5376878420459192,6.057414042740621,1.0323021411895752,-3.033262554799215
1708433801.7363338,-2.1052069664001465,-1.33556321383033,-2.5378409067737024,6.0568028567130945,1.0326117277145386,-3.035419527684347
1708433801.7383804,-2.1046481132507324,-1.335650013094284,-2.53805381456484,6.056195843010702,1.0328590869903564,-3.037422005330221
1708433801.7403464,-2.1040732860565186,-1.3358304363540192,-2.538266722355978,6.05569480636672,1.0331162214279175,-3.039495293294088
1708433801.7423394,-2.1035423278808594,-1.335929275756218,-2.5384796301471155,6.055157530098715,1.0334298610687256,-3.0415476004229944
1708433801.744338,-2.102996349334717,-1.3360739660314103,-2.5386956373797815,6.054581868439474,1.0336941480636597,-3.043570343648092
1708433801.7463295,-2.1024773120880127,-1.3361389499953766,-2.53896409669985,6.054105865746298,1.0339622497558594,-3.045536820088522
1708433801.7483552,-2.101874828338623,-1.3363194924644013,-2.539212767277853,6.0534576056297205,1.0343000888824463,-3.0475426355945032
1708433801.7503505,-2.1012556552886963,-1.3365523231080552,-2.539485756550924,6.052919256478109,1.034563422203064,-3.04952055612673
1708433801.7523284,-2.1007089614868164,-1.3366347563317795,-2.5397420565234583,6.052373158722677,1.0348879098892212,-3.051495615636007
1708433801.754366,-2.1000936031341553,-1.336797760134079,-2.5399609247790735,6.051794397621908,1.0351917743682861,-3.053455416356222
1708433801.7563276,-2.099527597427368,-1.336981327538826,-2.5402100721942347,6.051281201630392,1.0355587005615234,-3.055485550557272
1708433801.7583275,-2.0989692211151123,-1.3371415448239823,-2.540441338215963,6.050794708519735,1.0358452796936035,-3.0573700110064905
1708433801.7603283,-2.0984280109405518,-1.3373251122287293,-2.540656630192892,6.050206649094381,1.0361384153366089,-3.0593915621386927
1708433801.762327,-2.0978193283081055,-1.3375132244876404,-2.5408909956561487,6.0496688959892175,1.0364476442337036,-3.0614407698260706
1708433801.764339,-2.097203493118286,-1.3376479309848328,-2.541135374699728,6.049115168839254,1.0367600917816162,-3.063467089329855
1708433801.766331,-2.0966427326202393,-1.3378777217916031,-2.541424814854757,6.048568475037374,1.0370850563049316,-3.065453116093771
1708433801.7683485,-2.0960774421691895,-1.3380122494748612,-2.5417097250567835,6.048083412438192,1.037437915802002,-3.067375723515646
1708433801.7703476,-2.0954740047454834,-1.338223086004593,-2.541989866887228,6.047536361008444,1.0377658605575562,-3.069181505833761
1708433801.772338,-2.0948567390441895,-1.3384234321168442,-2.5422404448138636,6.047034013062277,1.038074016571045,-3.0710881392108362
1708433801.7743504,-2.0942606925964355,-1.338564859037735,-2.5425284544574183,6.046519148140707,1.0383409261703491,-3.0730486551867884
1708433801.7763922,-2.0936248302459717,-1.3388010126403351,-2.5427640120135706,6.04609094837264,1.0387279987335205,-3.074817959462301
1708433801.7783597,-2.0929994583129883,-1.3389761757901688,-2.54309851328005,6.0454808352287195,1.0391018390655518,-3.076608959828512
1708433801.7803488,-2.092442750930786,-1.3391677153161545,-2.5433083216296595,6.044950830727377,1.0394012928009033,-3.0784366766559046
1708433801.7823772,-2.0917251110076904,-1.3393662732890625,-2.5435991922961634,6.0445147631462,1.039746642112732,-3.0803492704974573
1708433801.784349,-2.0911190509796143,-1.3395786744407197,-2.543879810963766,6.043874490052023,1.0400867462158203,-3.082194153462545
1708433801.786346,-2.0904767513275146,-1.339813233619072,-2.5441556612597864,6.0433398363883875,1.0404558181762695,-3.0841198603259485
1708433801.788338,-2.0898585319519043,-1.3400044602206727,-2.544497315083639,6.04294894912795,1.0407960414886475,-3.0858989397632044
1708433801.7903404,-2.0892035961151123,-1.3402122420123597,-2.5447896162616175,6.0423587439353845,1.0411490201950073,-3.0877707640277308
1708433801.7923403,-2.0885818004608154,-1.340427653198578,-2.5450759569751185,6.041844832688131,1.041547417640686,-3.089531723652975
1708433801.7943516,-2.0879266262054443,-1.3406144690564652,-2.5453923384295862,6.041392433434286,1.0418750047683716,-3.0913828055011194
1708433801.7963736,-2.0872483253479004,-1.3408866089633484,-2.54564339319338,6.04090045669631,1.0422024726867676,-3.0932310263263147
1708433801.7983773,-2.086634635925293,-1.3410895329764863,-2.5459685961352747,6.040450441628256,1.0425797700881958,-3.0950456301318567
1708433801.8003595,-2.085878610610962,-1.3413122308305283,-2.5462475458728235,6.039881694107809,1.0429407358169556,-3.09680420557131
1708433801.80235,-2.085216522216797,-1.3415277016213913,-2.5466375986682337,6.039437877922811,1.0433381795883179,-3.098593537007467
1708433801.8043425,-2.0845093727111816,-1.3418085140040894,-2.5469403902636927,6.038897859841146,1.0436573028564453,-3.100452725087301
1708433801.8063333,-2.083892583847046,-1.3419801902822037,-2.5472446123706263,6.0384325859840295,1.0440508127212524,-3.1021037737475794
1708433801.808351,-2.083153009414673,-1.3422777515700837,-2.547540251408712,6.037900078087606,1.0444611310958862,-3.103854481373922
1708433801.8103404,-2.0824713706970215,-1.3425213557532807,-2.547908608113424,6.037451493531027,1.0447874069213867,-3.105487648640768
1708433801.8123343,-2.081801176071167,-1.3427397173694153,-2.5482047239886683,6.036963808327474,1.045181393623352,-3.107133928929464
1708433801.8143375,-2.0811524391174316,-1.3429382902434845,-2.5485194365130823,6.036542045861044,1.0455657243728638,-3.1087587515460413
1708433801.8163383,-2.080387592315674,-1.3432136339000245,-2.548880402241842,6.036045896797933,1.046023964881897,-3.110434118901388
1708433801.81834,-2.0797317028045654,-1.343473420744278,-2.54920465150942,6.035585510521688,1.0463922023773193,-3.112034861241476
1708433801.8203485,-2.0789992809295654,-1.3437036138824006,-2.5495150724994105,6.035094606667318,1.0467844009399414,-3.1136580149279993
1708433801.8223403,-2.0783159732818604,-1.3440368634513398,-2.5499091784106653,6.034553515702047,1.0471409559249878,-3.115321938191549
1708433801.8243454,-2.077613353729248,-1.3442794543555756,-2.5501795450793665,6.034133302956381,1.0475256443023682,-3.116890255604879
1708433801.826341,-2.076826810836792,-1.3445485991290589,-2.5505269209491175,6.033650028496542,1.047850251197815,-3.118537727986471
1708433801.8283303,-2.0761911869049072,-1.344794825916626,-2.5508421103106897,6.033231842308798,1.0481910705566406,-3.120249096547262
1708433801.8303342,-2.0754895210266113,-1.3450130981257935,-2.5512409845935267,6.032721268921652,1.0485759973526,-3.1218536535846155
1708433801.8323684,-2.0747904777526855,-1.3452998262694855,-2.55155593553652,6.032315838127889,1.0489649772644043,-3.123481575642721
1708433801.83434,-2.0740509033203125,-1.3455136132291337,-2.5518961588488978,6.031814920693197,1.049354076385498,-3.1250746885882776
1708433801.8363574,-2.0733184814453125,-1.3457814019969483,-2.552223269139425,6.03141866901473,1.0497386455535889,-3.1266606489764612
1708433801.8383675,-2.0726542472839355,-1.346027986412384,-2.5526040236102503,6.030938613205709,1.0501400232315063,-3.1280787626849573
1708433801.8403397,-2.0719430446624756,-1.3462700110724946,-2.5529313723193567,6.030480491905966,1.050580620765686,-3.1296196619616907
1708433801.8423767,-2.0711634159088135,-1.3465467256358643,-2.5532293955432337,6.030000674515524,1.0509520769119263,-3.1310609022723597
1708433801.8443341,-2.070446252822876,-1.3467529875091095,-2.5536814371692103,6.029520857125082,1.0513981580734253,-3.1324403921710413
1708433801.846331,-2.069753408432007,-1.3470307749560853,-2.553932015095846,6.029047357826986,1.0518099069595337,-3.13393217722048
1708433801.848357,-2.0690674781799316,-1.3472953301719208,-2.554331127797262,6.028654682427206,1.052252173423767,-3.13543945947756
1708433801.850349,-2.068312883377075,-1.3475991052440186,-2.554631773625509,6.028192388802328,1.0526814460754395,-3.1368394533740442
1708433801.8523827,-2.0676543712615967,-1.3478543025306244,-2.555020872746603,6.0277079222495935,1.0530277490615845,-3.138167921696798
1708433801.8543699,-2.066985845565796,-1.3481462460807343,-2.5553649107562464,6.027317511826315,1.0534783601760864,-3.139530960713522
1708433801.8563433,-2.066197633743286,-1.3483343881419678,-2.5557079950915735,6.0269286511238,1.0539153814315796,-3.1409414450274866
1708433801.8583417,-2.0654385089874268,-1.3486541372588654,-2.5560434500323694,6.026443588524618,1.054323434829712,-3.1422811190234583
1708433801.860342,-2.0646681785583496,-1.348938063984253,-2.5564151445971888,6.025973546295919,1.054777979850769,-3.143634621297018
1708433801.8623557,-2.063947916030884,-1.3492369067719956,-2.55678373972048,6.025527703552999,1.0551975965499878,-3.1449862162219446
1708433801.864365,-2.063213348388672,-1.3495479834130784,-2.557113234196798,6.025096881180563,1.0555912256240845,-3.1463280359851282
1708433801.8663828,-2.062436819076538,-1.349834994678833,-2.557462755833761,6.024657594948568,1.0559343099594116,-3.147616449986593
1708433801.8683429,-2.061713457107544,-1.3501354616931458,-2.5578344503985804,6.024201977043905,1.0563429594039917,-3.148907725011007
1708433801.8703547,-2.0609381198883057,-1.3504058879664917,-2.558235470448629,6.023842084198751,1.0567233562469482,-3.1502371470080774
1708433801.8723779,-2.0602076053619385,-1.3506975036910553,-2.558566395436422,6.023398268013754,1.0571889877319336,-3.1514914671527308
1708433801.8743658,-2.05948543548584,-1.351075456743576,-2.558929745350973,6.022913801461019,1.0576097965240479,-3.1527984778033655
1708433801.8763561,-2.0586535930633545,-1.351372854118683,-2.5593586603747767,6.0224753496940515,1.0580885410308838,-3.1540749708758753
1708433801.8783448,-2.057913064956665,-1.3516183507493515,-2.5597103277789515,6.022083270340719,1.0584604740142822,-3.155360285435812
1708433801.8803442,-2.0571155548095703,-1.3518944841674347,-2.560098473225729,6.0215738890464685,1.0588572025299072,-3.1566923300372522
1708433801.8823593,-2.0562989711761475,-1.3522682946971436,-2.5604456106769007,6.021184909134664,1.0592526197433472,-3.15790039697756
1708433801.8843498,-2.055511951446533,-1.3525460821441193,-2.5608585516559046,6.020754086762228,1.0596580505371094,-3.1590202490436
1708433801.886339,-2.054778575897217,-1.3529064816287537,-2.5612545649157923,6.020359265595236,1.0600416660308838,-3.1602099577533167
1708433801.8883505,-2.053952932357788,-1.3531589371016999,-2.5616257826434534,6.019944894104757,1.06046724319458,-3.1613476912127894
1708433801.8903525,-2.0531394481658936,-1.3535026174834748,-2.5620504061328333,6.019509422570028,1.0609129667282104,-3.1625426451312464
1708433801.8923442,-2.0523018836975098,-1.3538168233684083,-2.562446419392721,6.019034373551168,1.0613216161727905,-3.1636956373797815
1708433801.8943377,-2.051401376724243,-1.354115606551506,-2.5628183523761194,6.018620121269979,1.061738133430481,-3.1648340860949915
1708433801.8963327,-2.050607919692993,-1.3545044225505372,-2.5632382074939173,6.018172967224874,1.062154769897461,-3.165907684956686
1708433801.8983412,-2.049802541732788,-1.3548195523074646,-2.563645903264181,6.017815100937643,1.0625983476638794,-3.16701323190798
1708433801.9003558,-2.048959255218506,-1.3551664513400574,-2.564037624989645,6.017400491028585,1.0630816221237183,-3.168103281651632
1708433801.9023416,-2.048085927963257,-1.3554609578898926,-2.5644407908069056,6.01693736293868,1.0634979009628296,-3.169147793446676
1708433801.9043524,-2.047269582748413,-1.3557629150203248,-2.564833704625265,6.016514050751486,1.063897728919983,-3.170154396687643
1708433801.9063432,-2.0463969707489014,-1.3561022144607087,-2.5652251879321497,6.016177284508505,1.0643668174743652,-3.1711679140674036
1708433801.9083467,-2.0455384254455566,-1.3564580541900177,-2.5656774679767054,6.015715944557943,1.0647966861724854,-3.17222506204714
1708433801.910357,-2.044590711593628,-1.3567834359458466,-2.5661469141589563,6.015323149948873,1.0652128458023071,-3.173293177281515
1708433801.9123757,-2.0436630249023438,-1.357155756359436,-2.5665534178363245,6.014855491905966,1.0656862258911133,-3.174298111592428
1708433801.9143467,-2.042755126953125,-1.3574604553035279,-2.567009750996725,6.014390814095297,1.0661669969558716,-3.1752470175372522
1708433801.916417,-2.0418341159820557,-1.3578074437430878,-2.567425314580099,6.014039027481832,1.0666251182556152,-3.1761985460864466
1708433801.9183486,-2.0409510135650635,-1.3581498724273224,-2.5678330103503626,6.013566720276632,1.0669829845428467,-3.1771910826312464
1708433801.9204,-2.039950132369995,-1.358497754936554,-2.5682814756976526,6.013131367951193,1.0673960447311401,-3.1781893412219446
1708433801.922393,-2.0390853881835938,-1.3588026475957413,-2.5687254110919397,6.012709605484762,1.0678476095199585,-3.179080073033468
1708433801.924343,-2.0380642414093018,-1.3591793936542054,-2.5692179838763636,6.0122471926505945,1.0683051347732544,-3.180033270512716
1708433801.9263504,-2.037104845046997,-1.3595550072244187,-2.569660250340597,6.01182101944045,1.0687867403030396,-3.1810084025012415
1708433801.9283404,-2.0361387729644775,-1.3598758739284058,-2.5701661745654505,6.011341559677877,1.0692583322525024,-3.181970183049337
1708433801.9303734,-2.0351595878601074,-1.360267536049225,-2.570596758519308,6.010903227120199,1.0697269439697266,-3.182929340993063
1708433801.9323847,-2.034153461456299,-1.3606382769397278,-2.5710647741900843,6.0105018494422815,1.0701744556427002,-3.183876339589254
1708433801.9343686,-2.033149480819702,-1.3609864872745057,-2.5715771357165735,6.010058390885153,1.0705828666687012,-3.184758011494772
1708433801.9363675,-2.0321991443634033,-1.3613440257361908,-2.5720420519458216,6.00957356670455,1.0709912776947021,-3.185592238103048
1708433801.938327,-2.031148672103882,-1.361696795826294,-2.5724967161761683,6.0092131970222376,1.0714354515075684,-3.1864505449878138
1708433801.94036,-2.030165433883667,-1.3620855075171967,-2.5729599634753626,6.008729326515951,1.07182776927948,-3.1872809568988245
1708433801.9423354,-2.029142141342163,-1.3624648612788697,-2.573423449193136,6.008368241577902,1.0722765922546387,-3.1881352106677454
1708433801.9443316,-2.028172254562378,-1.3628103596023102,-2.5738959948169153,6.007903325348654,1.0727460384368896,-3.1888466517077845
1708433801.946356,-2.0271763801574707,-1.363185243015625,-2.574383322392599,6.007457601815023,1.0731698274612427,-3.1896618048297327
1708433801.9483664,-2.0260937213897705,-1.363556222324707,-2.574834648762838,6.00700997093276,1.0736336708068848,-3.1903508345233362
1708433801.950356,-2.0250611305236816,-1.3639357549003144,-2.5753396193133753,6.006544101029196,1.074148178100586,-3.19122821489443
1708433801.9523683,-2.023967981338501,-1.3643456560424347,-2.575897518788473,6.0060897944267175,1.0746409893035889,-3.191986624394552
1708433801.954352,-2.0228521823883057,-1.3647564512542267,-2.576413695012228,6.005659568100729,1.0751155614852905,-3.1927693525897425
1708433801.956373,-2.021761178970337,-1.3651464742473145,-2.5769339243518274,6.0052339909370325,1.0756123065948486,-3.1934505144702356
1708433801.9583457,-2.0207598209381104,-1.365526245241501,-2.5773914496051233,6.004812109261312,1.0760689973831177,-3.1941521803485315
1708433801.9603314,-2.019665479660034,-1.3659238082221528,-2.577845875416891,6.0043794987495325,1.0764803886413574,-3.194847647343771
1708433801.9623704,-2.0185372829437256,-1.3663601142219086,-2.5783796946154993,6.004002082138815,1.0768710374832153,-3.1955509821521204
1708433801.9643412,-2.017350435256958,-1.3667653662017365,-2.578912083302633,6.003563511162557,1.0772911310195923,-3.1962602774249476
1708433801.9663758,-2.0162599086761475,-1.3672000926784058,-2.579484764729635,6.003076302796163,1.0777606964111328,-3.1969731489764612
1708433801.9683406,-2.0150327682495117,-1.3676307660392304,-2.5800488630877894,6.0025555966194055,1.0782489776611328,-3.1977391878711146
1708433801.9703507,-2.013932466506958,-1.3680789929679413,-2.5806172529803675,6.002150046616354,1.0787465572357178,-3.1983633677112024
1708433801.972429,-2.012709140777588,-1.3684466642192383,-2.581140104924337,6.001683103829183,1.079187035560608,-3.199050013219015
1708433801.9743338,-2.011500120162964,-1.3688576382449646,-2.58165151277651,6.001140463143148,1.0795952081680298,-3.199717108403341
1708433801.9763453,-2.010333776473999,-1.3693255645087739,-2.5822435061084192,6.00076853015975,1.0800111293792725,-3.2002812067614954
1708433801.9783256,-2.0091755390167236,-1.369685785179474,-2.582737986241476,6.0003710863883875,1.0804482698440552,-3.2009337584124964
1708433801.9803364,-2.0079097747802734,-1.3701626521399994,-2.5833714644061487,5.99995647647933,1.0809296369552612,-3.2015727202044886
1708433801.9823418,-2.006655693054199,-1.3705884379199524,-2.5839670340167444,5.999439584999838,1.0814310312271118,-3.2022069136248987
1708433801.9843292,-2.0054211616516113,-1.3710056108287354,-2.5845664183246058,5.999001371651449,1.0818579196929932,-3.202801767979757
1708433801.9863386,-2.004150390625,-1.3714660865119477,-2.5851708094226282,5.998543607979574,1.0823591947555542,-3.2033806482898157
1708433801.988333,-2.002840042114258,-1.3719529670527955,-2.5856710116015833,5.998034822731771,1.082798957824707,-3.2039743105517786
1708433801.9903357,-2.0016026496887207,-1.3723524373820801,-2.5862653891192835,5.997649776726522,1.0832762718200684,-3.2045896689044397
1708433801.9923437,-2.000277519226074,-1.372805045252182,-2.5868616739856165,5.9971938011939905,1.0836102962493896,-3.2051718870746058
1708433801.9943223,-1.9990248680114746,-1.373238520031311,-2.587534491215841,5.996745931893148,1.084083080291748,-3.2057352701770228
1708433801.9963405,-1.9977306127548218,-1.3736974161914368,-2.5881004969226282,5.996309387474813,1.0845319032669067,-3.2062981764422815
1708433801.9983294,-1.9964497089385986,-1.3742019993117829,-2.5887282530414026,5.995844828873434,1.084946632385254,-3.2068498770343226
1708433802.0003564,-1.995043396949768,-1.3746767503074189,-2.58928090730776,5.995476114540853,1.0855133533477783,-3.2073023954974573
1708433802.0023496,-1.9937305450439453,-1.3751781743815918,-2.5900285879718226,5.994954573899069,1.0859814882278442,-3.207862202321188
1708433802.0043538,-1.9923726320266724,-1.3756529253772278,-2.590613905583517,5.9944567559059045,1.086445689201355,-3.20836049715151
1708433802.0063317,-1.990975022315979,-1.3761380177787323,-2.5912352244006556,5.994035589485922,1.0869545936584473,-3.2089090983020228
1708433802.0083742,-1.9895817041397095,-1.376650021677353,-2.591896120701925,5.993495213776388,1.0874263048171997,-3.209419075642721
1708433802.0103774,-1.9881662130355835,-1.3771261733821412,-2.592538897191183,5.9930832264717,1.0878410339355469,-3.209844175969259
1708433802.012391,-1.9867836236953735,-1.377617211346962,-2.593130413685934,5.992612230568685,1.0883272886276245,-3.2104063669787806
1708433802.014379,-1.985334038734436,-1.3781276506236573,-2.5937517325030726,5.992280232697286,1.0887359380722046,-3.210838858281271
1708433802.0163915,-1.9839427471160889,-1.3785095077804108,-2.5944650808917444,5.991766202240743,1.0891802310943604,-3.2113667170154017
1708433802.0183582,-1.9824804067611694,-1.3790996831706543,-2.5951195398913782,5.99129747131423,1.089624285697937,-3.211846176777975
1708433802.0203593,-1.9809883832931519,-1.3796699208072205,-2.595778528844015,5.990817773133077,1.0901046991348267,-3.212292496358053
1708433802.022366,-1.979482889175415,-1.3801504981568833,-2.5964210669146937,5.990321743279257,1.0905520915985107,-3.2127681414233606
1708433802.0243552,-1.9780197143554688,-1.3806778949550171,-2.5972028414355677,5.98987768867568,1.0909847021102905,-3.213210407887594
1708433802.0263634,-1.9765595197677612,-1.381221519117691,-2.597832266484396,5.989484178810873,1.0914647579193115,-3.21370512643923
1708433802.0283651,-1.9750868082046509,-1.3817230027965088,-2.598520104085104,5.989036667137899,1.0918763875961304,-3.214148823414938
1708433802.0303638,-1.9736158847808838,-1.3822590869716187,-2.5991607348071497,5.98856400230483,1.0922681093215942,-3.2145991961108606
1708433802.032371,-1.9721295833587646,-1.3828431826880951,-2.5999351183520716,5.988161194115438,1.0927659273147583,-3.2150307337390345
1708433802.0343816,-1.9706509113311768,-1.383459911947586,-2.6005757490741175,5.987666713982382,1.0931533575057983,-3.215400044118063
1708433802.0364065,-1.96910560131073,-1.3838956517032166,-2.601297918950216,5.987252700119772,1.0936267375946045,-3.215889279042379
1708433802.0383632,-1.9675543308258057,-1.3844707173160096,-2.602072064076559,5.986805665283956,1.0940711498260498,-3.216292921696798
1708433802.0403447,-1.96604585647583,-1.3851297509721299,-2.6027448813067835,5.986357795983114,1.0945392847061157,-3.2166200319873255
1708433802.042346,-1.9644322395324707,-1.3856806320003052,-2.6034775416003626,5.985962378769674,1.094983696937561,-3.2170379797564905
1708433802.0443552,-1.9629530906677246,-1.3861927849105378,-2.6041560808764856,5.985566484719076,1.0953484773635864,-3.217424217854635
1708433802.046349,-1.9614132642745972,-1.3867678505233307,-2.604847017918722,5.985125887184896,1.0957447290420532,-3.2178784052478235
1708433802.0483694,-1.959854006767273,-1.3873772782138367,-2.6055534521686,5.984792458802023,1.096144437789917,-3.2181766668902796
1708433802.0503595,-1.9582629203796387,-1.387976275091507,-2.6062737146960657,5.984358298569479,1.0966213941574097,-3.2185288111316126
1708433802.052341,-1.9566397666931152,-1.388549492960312,-2.6070261637317103,5.984016406327047,1.0970419645309448,-3.2189412752734583
1708433802.054371,-1.955060362815857,-1.38916631162677,-2.6076911131488245,5.983538257866659,1.097474217414856,-3.2192519346820276
1708433802.056345,-1.9534821510314941,-1.3897610020688553,-2.6084428469287317,5.98322211483077,1.097947120666504,-3.219618860875265
1708433802.058352,-1.9518687725067139,-1.3903759580901642,-2.609112803136007,5.982812869339742,1.0983673334121704,-3.219937864934103
1708433802.06034,-1.950289011001587,-1.3909540337375184,-2.609851900731222,5.9824291346366785,1.0987341403961182,-3.2202563921557825
1708433802.0624163,-1.9487038850784302,-1.3915528518012543,-2.6105499903308313,5.982003915100851,1.0991874933242798,-3.2206788698779505
1708433802.0643706,-1.947069525718689,-1.3921685081771393,-2.611325804387228,5.981652724533834,1.0995595455169678,-3.2209721247302454
1708433802.0663793,-1.9454216957092285,-1.3927623194507142,-2.61202055612673,5.9812976000602625,1.0999563932418823,-3.2213061491595667
1708433802.0683527,-1.9438375234603882,-1.3933626872352143,-2.612734858189718,5.980939256935873,1.1002873182296753,-3.221619192753927
1708433802.0703576,-1.9422938823699951,-1.3938423556140442,-2.6135032812701624,5.980673420220175,1.1006803512573242,-3.2219682375537317
1708433802.0723581,-1.940706729888916,-1.3945203137448807,-2.6141863504992884,5.9802870629127405,1.1010777950286865,-3.2222588698016565
1708433802.0743587,-1.9390943050384521,-1.3951310527375718,-2.6149233023272913,5.979972111969747,1.101388931274414,-3.2225897947894495
1708433802.0763538,-1.9375475645065308,-1.3956969243339081,-2.6156957785235804,5.979600178986349,1.1017087697982788,-3.22290283838381
1708433802.078368,-1.9359103441238403,-1.3963506084731598,-2.6164217630969446,5.979252683907308,1.102053165435791,-3.2231772581683558
1708433802.080373,-1.9343492984771729,-1.3969082695296784,-2.6171067396747034,5.978949892311849,1.1024296283721924,-3.2234349886523646
1708433802.0823808,-1.9327409267425537,-1.3975400042584916,-2.617850128804342,5.978641140251913,1.102765440940857,-3.223743502293722
1708433802.0843494,-1.9312187433242798,-1.3980945211699982,-2.6186540762530726,5.978371012001791,1.10303795337677,-3.2239819208728235
1708433802.0863476,-1.9296931028366089,-1.398714081650116,-2.6193321386920374,5.978093611985006,1.103363275527954,-3.224273745213644
1708433802.088355,-1.9281151294708252,-1.3993415099433442,-2.6200502554522913,5.97776888588027,1.1036100387573242,-3.224574867879049
1708433802.0903456,-1.9265656471252441,-1.3999570173076172,-2.6208134333239954,5.977571832924642,1.1039834022521973,-3.2247920672046106
1708433802.0923426,-1.9249814748764038,-1.4005617064288636,-2.6215439478503626,5.977310883789816,1.1042661666870117,-3.225055758153097
1708433802.0943506,-1.9234789609909058,-1.401243196134903,-2.622319761906759,5.9770322916801355,1.1046110391616821,-3.225320641194479
1708433802.0963333,-1.9219435453414917,-1.401770071392395,-2.6230090300189417,5.97679232338027,1.1049307584762573,-3.225567881261007
1708433802.0983381,-1.9203932285308838,-1.4023972314647217,-2.6236870924579065,5.976567494660177,1.1052123308181763,-3.2258315722094935
1708433802.100363,-1.91886568069458,-1.4030038875392457,-2.6244149843799036,5.976315843849935,1.1054388284683228,-3.226067845021383
1708433802.1023324,-1.9173575639724731,-1.403670312171318,-2.6251354853259485,5.976128327637472,1.1056995391845703,-3.2263434568988245
1708433802.1043577,-1.9157984256744385,-1.4042682659677048,-2.6258063952075403,5.975916969567098,1.1059762239456177,-3.2265175024615687
1708433802.106348,-1.914305567741394,-1.4048695129207154,-2.626519505177633,5.975757944374838,1.1061943769454956,-3.2267330328570765
1708433802.1083457,-1.9127206802368164,-1.405500353579857,-2.627223316823141,5.9755616066749475,1.1064672470092773,-3.2269728819476526
1708433802.1103525,-1.9112213850021362,-1.406131700878479,-2.62791353860964,5.975375997811117,1.1066912412643433,-3.2272000948535364
1708433802.112369,-1.9096789360046387,-1.40681345880542,-2.628568236027853,5.975332009583273,1.1069731712341309,-3.2274325529681605
1708433802.1143656,-1.908176302909851,-1.4074556690505524,-2.6293004194842737,5.975155222206869,1.1071226596832275,-3.227640692387716
1708433802.1163342,-1.9066425561904907,-1.408097730284073,-2.6299167315112513,5.975002515106954,1.1073517799377441,-3.227839771901266
1708433802.1183598,-1.9051759243011475,-1.4087027472308655,-2.630650822316305,5.974881040840902,1.1076245307922363,-3.228092972432272
1708433802.1203437,-1.9036797285079956,-1.409395770435669,-2.6313045660602015,5.974777686386862,1.1077678203582764,-3.2281985918628138
1708433802.1223485,-1.9023065567016602,-1.409894512300827,-2.6319053808795374,5.974763858109274,1.10793137550354,-3.228399101887838
1708433802.1243594,-1.9008893966674805,-1.4105429214290162,-2.632615391408102,5.974737036019125,1.1080471277236938,-3.2285612265216272
1708433802.126339,-1.8993946313858032,-1.4111794096282502,-2.633232657109396,5.97465597370223,1.1082494258880615,-3.228725258504049
1708433802.1283479,-1.8979275226593018,-1.4118924003890534,-2.633871857319967,5.9746155617530725,1.1083683967590332,-3.2289426962481897
1708433802.1303446,-1.896581768989563,-1.4124524009278794,-2.6345563570605677,5.974633204727926,1.1085528135299683,-3.2290847937213343
1708433802.1323485,-1.8951462507247925,-1.4131004375270386,-2.6351168791400355,5.974534976273336,1.1086881160736084,-3.229260269795553
1708433802.1343606,-1.8937602043151855,-1.4137428861907502,-2.6357482115374964,5.974622595101156,1.1088277101516724,-3.2294371763812464
1708433802.1363554,-1.8923901319503784,-1.4143539530089875,-2.6363261381732386,5.974588262825765,1.108903169631958,-3.229560438786642
1708433802.1383486,-1.890979528427124,-1.414972112779953,-2.6369791666613978,5.974653947144308,1.1089786291122437,-3.229703728352682
1708433802.1403387,-1.8896632194519043,-1.4156807375005265,-2.637554709111349,5.974827992707052,1.1090190410614014,-3.2298319975482386
1708433802.1423438,-1.888329267501831,-1.4162992399981995,-2.6381169001208704,5.974894153862753,1.1090583801269531,-3.230004374180929
1708433802.1443648,-1.886947751045227,-1.4169593763402482,-2.638700071965353,5.975046622544088,1.1091513633728027,-3.230152432118551
1708433802.146361,-1.8856379985809326,-1.4175600868514557,-2.6392844359027308,5.975122082024374,1.109203577041626,-3.2302873770343226
1708433802.1483765,-1.8843023777008057,-1.418251560335495,-2.6397891680346888,5.9752715704734705,1.1092637777328491,-3.2304042021380823
1708433802.1503675,-1.8829736709594727,-1.4189282816699524,-2.6403523127185267,5.9753901837165735,1.109397053718567,-3.230507198964254
